!!!COA: Josquin des Prez
!!!CDT: ~1450-1521/08/27
!!!OTL@@LAT:  Vultum tuum deprecabuntur
!!!OTL2@@LAT: Sancta dei genitrix 
!!!OTL3@@LAT: O intemerata virgo 
!!!OTL4@@LAT: O Maria 
!!!OTL5@@LAT: Mente tota tibi supplicamus 
!!!OTL6@@LAT: Ora pro nobis 
!!!OTL7@@LAT: Christi, fili dei
!!!AGN: Motet; Motet cycle
!!!SCT: NJE 25.14
!!!SCA: New Josquin Edition 25.14
!!!voices: 4
**kern	**text	**kern	**text	**kern	**text	**text	**kern	**text
*staff4	*	*staff3	*	*staff2	*	*	*staff1	*
*Ivox	*	*Ivox	*	*Ivox	*	*	*Ivox	*
*I"Bassus	*	*I"Tenor	*	*I"Altus	*	*	*I"Superius	*
*I'B	*	*I'T	*	*I'A	*	*	*I'S	*
*>[A,B,C,D,E,F]	*	*>[A,B,C,D,E,F]	*	*>[A,B,C,D,E,F]	*	*	*>[A,B,C,D,E,F]	*
*>Part1[A]	*	*>Part1[A]	*	*>Part1[A]	*	*	*>Part1[A]	*
*>Part2[B]	*	*>Part2[B]	*	*>Part2[B]	*	*	*>Part2[B]	*
*>Part3[C]	*	*>Part3[C]	*	*>Part3[C]	*	*	*>Part3[C]	*
*>Part4[D]	*	*>Part4[D]	*	*>Part4[D]	*	*	*>Part4[D]	*
*>Part5[E]	*	*>Part5[E]	*	*>Part5[E]	*	*	*>Part5[E]	*
*>Part6[F]	*	*>Part6[F]	*	*>Part6[F]	*	*	*>Part6[F]	*
*clefF4	*	*clefGv2	*	*clefGv2	*	*	*clefG2	*
*k[b-]	*	*k[b-]	*	*k[b-]	*	*	*k[b-]	*
*>A	*	*>A	*	*>A	*	*	*>A	*
*M2/1	*	*M2/1	*	*M2/1	*	*	*M2/1	*
*met(C|)	*	*met(C|)	*	*met(C|)	*	*	*met(C|)	*
!!section: Prima pars: Vultum tuum deprecabuntur
!!!OMD: Prima pars
=1-	=1-	=1-	=1-	=1-	=1-	=1-	=1-	=1-
[0G	.	0G	.	[0d	.	.	[0g	.
=2	=2	=2	=2	=2	=2	=2	=2	=2
0G]	.	0B-	.	0d_	.	.	0g]	.
=3	=3	=3	=3	=3	=3	=3	=3	=3
0D	.	1A	.	0d]	.	.	0f	.
.	.	[1d	.	.	.	.	.	.
=4	=4	=4	=4	=4	=4	=4	=4	=4
1.E-i	.	1d]	.	1.G	.	.	0g	.
.	.	1c	.	.	.	.	.	.
2D\	.	.	.	2A/	.	.	.	.
=5	=5	=5	=5	=5	=5	=5	=5	=5
0BB-	.	1d	.	1.B-	.	.	1f	.
.	.	[1f	.	.	.	.	[1d	.
.	.	.	.	2c\	.	.	.	.
=6	=6	=6	=6	=6	=6	=6	=6	=6
1.B-	.	2f\]	.	1d	.	.	2d/]	.
.	.	2e\	.	.	.	.	2e/	.
.	.	2d\	.	[1d	.	.	1f	.
2A\	.	2c\	.	.	.	.	.	.
=7	=7	=7	=7	=7	=7	=7	=7	=7
1G	.	1B-	.	2d\]	.	.	1g	.
.	.	.	.	2e\	.	.	.	.
1F	.	[1c	.	1f	.	.	[1a	.
=8	=8	=8	=8	=8	=8	=8	=8	=8
0E-i	.	2c\]	.	1g	.	.	2a/]	.
.	.	2B-\	.	.	.	.	2g/	.
.	.	1G	.	1c	.	.	[1g	.
=9	=9	=9	=9	=9	=9	=9	=9	=9
0D	.	0A	.	0d	.	.	1g]	.
.	.	.	.	.	.	.	1f#i	.
=10	=10	=10	=10	=10	=10	=10	=10	=10
1r	.	[0G	.	0B-	.	.	[0g	.
[1d	.	.	.	.	.	.	.	.
=11	=11	=11	=11	=11	=11	=11	=11	=11
2d\]	.	0G]	.	1G	.	.	0g]	.
2c\	.	.	.	.	.	.	.	.
[1B-	.	.	.	[1d	.	.	.	.
=12	=12	=12	=12	=12	=12	=12	=12	=12
2B-\]	.	0B-	.	2d\]	.	.	0r	.
2A\	.	.	.	2c\	.	.	.	.
1G	.	.	.	1B-	.	.	.	.
=13	=13	=13	=13	=13	=13	=13	=13	=13
1F	.	1c	.	1A	.	.	0r	.
1BB-	.	[1d	.	1B-	.	.	.	.
=14	=14	=14	=14	=14	=14	=14	=14	=14
0B-	.	1d]	.	0G	.	.	0r	.
.	.	1B-	.	.	.	.	.	.
=15	=15	=15	=15	=15	=15	=15	=15	=15
1A	.	1c	.	1F	.	.	0r	.
[1G	.	[1e-i	.	[1B-	.	.	.	.
=16	=16	=16	=16	=16	=16	=16	=16	=16
2G\]	.	2e-\]	.	1B-]	.	.	0r	.
2F\	.	2d\	.	.	.	.	.	.
1D	.	[1d	.	1A	.	.	.	.
=17	=17	=17	=17	=17	=17	=17	=17	=17
0G	.	1d]	.	1B-	.	.	0r	.
.	.	1B-	.	1G	.	.	.	.
=18	=18	=18	=18	=18	=18	=18	=18	=18
1F	.	1c	.	1A	.	.	0r	.
1BB-	.	[1d	.	1B-	.	.	.	.
=19	=19	=19	=19	=19	=19	=19	=19	=19
0B-	.	1d]	.	1G	.	.	0r	.
.	.	1B-	.	1d	.	.	.	.
=20	=20	=20	=20	=20	=20	=20	=20	=20
1A	.	1c	.	1c	.	.	0r	.
[1G	.	[1e-i	.	[1B-	.	.	.	.
=21	=21	=21	=21	=21	=21	=21	=21	=21
2G\]	.	2e-\]	.	2B-\]	.	.	0r	.
2F\	.	2d\	.	2A/	.	.	.	.
1D	.	[1d	.	[1A	.	.	.	.
=22	=22	=22	=22	=22	=22	=22	=22	=22
0E-i	.	1d]	.	1A]	.	.	0r	.
.	.	1c	.	1G	.	.	.	.
=23	=23	=23	=23	=23	=23	=23	=23	=23
[0D	.	[0d	.	1A	.	.	1r	.
.	.	.	.	1F	.	.	[1a	.
=24	=24	=24	=24	=24	=24	=24	=24	=24
0D]	.	0d]	.	1.f	.	.	1a]	.
.	.	.	.	.	.	.	1f	.
.	.	.	.	4e\	.	.	.	.
.	.	.	.	4d\	.	.	.	.
=25	=25	=25	=25	=25	=25	=25	=25	=25
0r	.	0r	.	1e	.	.	1g	.
.	.	.	.	1d	.	.	[1b-	.
=26	=26	=26	=26	=26	=26	=26	=26	=26
0r	.	0r	.	1.g	.	.	1b-]	.
.	.	.	.	.	.	.	1g	.
.	.	.	.	4f\	.	.	.	.
.	.	.	.	4e\	.	.	.	.
=27	=27	=27	=27	=27	=27	=27	=27	=27
0r	.	0r	.	1f	.	.	1a	.
.	.	.	.	[1g	.	.	1b-	.
=28	=28	=28	=28	=28	=28	=28	=28	=28
0C	.	0e-i	.	1g]	.	.	0g	.
.	.	.	.	1c	.	.	.	.
=29	=29	=29	=29	=29	=29	=29	=29	=29
[0G	.	0d	.	1B-	.	.	1r	.
.	.	.	.	1G	.	.	[1b-	.
=30	=30	=30	=30	=30	=30	=30	=30	=30
0G]	.	1d	.	1.d	.	.	1b-]	.
.	.	1B-	.	.	.	.	1g	.
.	.	.	.	2e\	.	.	.	.
=31	=31	=31	=31	=31	=31	=31	=31	=31
1F	.	1c	.	1f	.	.	1a	.
1BB-	.	1d	.	1d	.	.	1b-	.
=32	=32	=32	=32	=32	=32	=32	=32	=32
0C	.	0e-i	.	0c	.	.	0g	.
=33	=33	=33	=33	=33	=33	=33	=33	=33
0G	.	0d	.	1.B-	.	.	1r	.
.	.	.	.	.	.	.	[1b-	.
.	.	.	.	2A/	.	.	.	.
=34	=34	=34	=34	=34	=34	=34	=34	=34
1r	.	0e-i	.	2.G/	.	.	2b-\]	.
.	.	.	.	.	.	.	2a/	.
.	.	.	.	4F/	.	.	.	.
1C	.	.	.	1c	.	.	1g	.
=35	=35	=35	=35	=35	=35	=35	=35	=35
1D	.	0d	.	0A	.	.	1f	.
1F	.	.	.	.	.	.	1a	.
=36	=36	=36	=36	=36	=36	=36	=36	=36
1E-i	.	1e-i	.	0B-	.	.	1g	.
1G	.	1d	.	.	.	.	1b-	.
=37	=37	=37	=37	=37	=37	=37	=37	=37
0F	.	1.f	.	0c	.	.	1a	.
.	.	.	.	.	.	.	1cc	.
.	.	2e-i\	.	.	.	.	.	.
=38	=38	=38	=38	=38	=38	=38	=38	=38
1r	.	1d	.	0f	.	.	1b-	.
1F	.	1c	.	.	.	.	[1a	.
=39	=39	=39	=39	=39	=39	=39	=39	=39
1G	.	1B-	.	1d	.	.	2a/]	.
.	.	.	.	.	.	.	2g/	.
1C	.	1c	.	1e-i	.	.	[1g	.
=40	=40	=40	=40	=40	=40	=40	=40	=40
0D	.	0A	.	0d	.	.	1g]	.
.	.	.	.	.	.	.	1f#i	.
=41	=41	=41	=41	=41	=41	=41	=41	=41
1r	.	[0G	.	1B-	.	.	[0g	.
[1d	.	.	.	1G	.	.	.	.
=42	=42	=42	=42	=42	=42	=42	=42	=42
2d\]	.	0G]	.	1.d	.	.	0g]	.
2c\	.	.	.	.	.	.	.	.
2B-\	.	.	.	.	.	.	.	.
2A\	.	.	.	2c\	.	.	.	.
=43	=43	=43	=43	=43	=43	=43	=43	=43
2G\	.	0r	.	2B-\	.	.	0r	.
2F\	.	.	.	2A/	.	.	.	.
2B-\	.	.	.	2G/	.	.	.	.
2c\	.	.	.	2F/	.	.	.	.
=44	=44	=44	=44	=44	=44	=44	=44	=44
1.d	.	0r	.	4B-\	.	.	0r	.
.	.	.	.	4c\	.	.	.	.
.	.	.	.	4d\	.	.	.	.
.	.	.	.	4e\	.	.	.	.
.	.	.	.	4f\	.	.	.	.
.	.	.	.	4g\	.	.	.	.
2c\	.	.	.	[2a\	.	.	.	.
=45	=45	=45	=45	=45	=45	=45	=45	=45
2B-\	.	0r	.	4a\]	.	.	0r	.
.	.	.	.	4g\	.	.	.	.
2G\	.	.	.	1g	.	.	.	.
1A	.	.	.	.	.	.	.	.
.	.	.	.	2f#i\	.	.	.	.
=46	=46	=46	=46	=46	=46	=46	=46	=46
0G	.	0r	.	0g	.	.	0r	.
=47	=47	=47	=47	=47	=47	=47	=47	=47
*M3/1	*	*M3/1	*	*M3/1	*	*	*M3/1	*
*met(O/3)	*	*met(O/3)	*	*met(O/3)	*	*	*met(O/3)	*
1G	.	1g	.	1d	.	.	1b-	.
1G	.	1g	.	1d	.	.	1b-	.
1G	.	1g	.	1d	.	.	1b-	.
=48	=48	=48	=48	=48	=48	=48	=48	=48
0A	.	0f	.	0c	.	.	0cc	.
1A	.	1f	.	1c	.	.	1a	.
=49	=49	=49	=49	=49	=49	=49	=49	=49
0G	.	0g	.	0d	.	.	0b-	.
[1D	.	[1f	.	[1d	.	.	[1dd	.
=50	=50	=50	=50	=50	=50	=50	=50	=50
1D]	.	1f]	.	1d]	.	.	1dd]	.
0A	.	0e	.	0A	.	.	0cc	.
=51	=51	=51	=51	=51	=51	=51	=51	=51
0B-	.	0d	.	0f	.	.	0b-	.
[1F	.	[1c	.	[1f	.	.	[1a	.
=52	=52	=52	=52	=52	=52	=52	=52	=52
1F]	.	1c]	.	1f]	.	.	1a]	.
0G	.	0B-	.	0e	.	.	0g	.
=53	=53	=53	=53	=53	=53	=53	=53	=53
0.D	.	0A	.	0.d	.	.	0.f	.
.	.	1r	.	.	.	.	.	.
=54	=54	=54	=54	=54	=54	=54	=54	=54
1.F	.	1.A	.	0.r	.	.	0.r	.
2D\	.	2B-\	.	.	.	.	.	.
1E	.	1c	.	.	.	.	.	.
=55	=55	=55	=55	=55	=55	=55	=55	=55
0D	.	0d	.	0.r	.	.	1.a	.
.	.	.	.	.	.	.	2b-\	.
1r	.	1c	.	.	.	.	1cc	.
=56	=56	=56	=56	=56	=56	=56	=56	=56
0.r	.	1B-	.	1.d	.	.	0dd	.
.	.	1G	.	.	.	.	.	.
.	.	.	.	2e\	.	.	.	.
.	.	1A	.	1f	.	.	1cc	.
=57	=57	=57	=57	=57	=57	=57	=57	=57
0.r	.	0G	.	0g	.	.	1b-	.
.	.	.	.	.	.	.	1g	.
.	.	1r	.	1f	.	.	1a	.
=58	=58	=58	=58	=58	=58	=58	=58	=58
0.r	.	0c	.	1e	.	.	1.g	.
.	.	.	.	1c	.	.	.	.
.	.	.	.	.	.	.	2a/	.
.	.	1B-	.	1d	.	.	1b-	.
=59	=59	=59	=59	=59	=59	=59	=59	=59
0.r	.	1A	.	1.c	.	.	0cc	.
.	.	1F	.	.	.	.	.	.
.	.	.	.	2d\	.	.	.	.
.	.	1G	.	1e	.	.	1b-	.
=60	=60	=60	=60	=60	=60	=60	=60	=60
0D	.	1F	.	1f	.	.	1a	.
.	.	1.B-	.	1d	.	.	1f	.
1E	.	.	.	1G	.	.	1g	.
.	.	2c\	.	.	.	.	.	.
=61	=61	=61	=61	=61	=61	=61	=61	=61
1.D	.	1.d	.	1A	.	.	1f	.
.	.	.	.	1.f	.	.	0a	.
2E\	.	2c\	.	.	.	.	.	.
1F	.	1A	.	.	.	.	.	.
.	.	.	.	2e\	.	.	.	.
=62	=62	=62	=62	=62	=62	=62	=62	=62
0G	.	1B-	.	1.d	.	.	1g	.
.	.	0G	.	.	.	.	0b-	.
.	.	.	.	2B-\	.	.	.	.
1G	.	.	.	2.d\	.	.	.	.
.	.	.	.	4e\	.	.	.	.
=63	=63	=63	=63	=63	=63	=63	=63	=63
1.F	.	1.c	.	0f	.	.	1a	.
.	.	.	.	.	.	.	1.cc	.
2G\	.	2B-\	.	.	.	.	.	.
1A	.	2.A/	.	1F	.	.	.	.
.	.	.	.	.	.	.	2b-\	.
.	.	4G/	.	.	.	.	.	.
=64	=64	=64	=64	=64	=64	=64	=64	=64
1D	.	0d	.	1f	.	.	2a/	.
.	.	.	.	.	.	.	2g/	.
0G	.	.	.	1d	.	.	1.b-	.
.	.	1B-	.	[1e-i	.	.	.	.
.	.	.	.	.	.	.	2a/	.
=65	=65	=65	=65	=65	=65	=65	=65	=65
1C	.	1c	.	1e-]	.	.	0g	.
0D	.	0A	.	0d	.	.	.	.
.	.	.	.	.	.	.	1f#i	.
=66	=66	=66	=66	=66	=66	=66	=66	=66
0.Gl	.	0.Gl	.	0.dl	.	.	0.gl	.
!!LO:LB:i:g=z
=67||	=67||	=67||	=67||	=67||	=67||	=67||	=67||	=67||
*>B	*	*>B	*	*>B	*	*	*>B	*
!!section: Secunda pars: Sancta dei genitrix
!!!OMD: Secunda pars: Sancta dei genitrix
*M2/1	*	*M2/1	*	*M2/1	*	*	*M2/1	*
*met(C|)	*	*met(C|)	*	*met(C|)	*	*	*met(C|)	*
0r	.	0r	.	1.g	.	.	1.b-	.
.	.	.	.	2g\	.	.	2b-\	.
=68	=68	=68	=68	=68	=68	=68	=68	=68
0r	.	0r	.	1g	.	.	1b-	.
.	.	.	.	1a	.	.	1a	.
=69	=69	=69	=69	=69	=69	=69	=69	=69
0r	.	0r	.	1f	.	.	1.cc	.
.	.	.	.	1e	.	.	.	.
.	.	.	.	.	.	.	2cc\	.
=70	=70	=70	=70	=70	=70	=70	=70	=70
1.G	.	1.B-	.	1d	.	.	0dd	.
.	.	.	.	2G/	.	.	.	.
2G\	.	2B-\	.	[2d\	.	.	.	.
=71	=71	=71	=71	=71	=71	=71	=71	=71
1G	.	1B-	.	2d\]	.	.	0r	.
.	.	.	.	4c\	.	.	.	.
.	.	.	.	4B-\	.	.	.	.
1A	.	1A	.	2c\	.	.	.	.
.	.	.	.	[2A/	.	.	.	.
=72	=72	=72	=72	=72	=72	=72	=72	=72
1F	.	1.c	.	2A/]	.	.	0r	.
.	.	.	.	4G/	.	.	.	.
.	.	.	.	4F/	.	.	.	.
1E	.	.	.	1G	.	.	.	.
.	.	2c\	.	.	.	.	.	.
=73	=73	=73	=73	=73	=73	=73	=73	=73
0D	.	0d	.	2A/	.	.	1r	.
.	.	.	.	2B-\	.	.	.	.
.	.	.	.	2F/	.	.	1dd	.
.	.	.	.	[2f\	.	.	.	.
=74	=74	=74	=74	=74	=74	=74	=74	=74
0r	.	0r	.	2f\]	.	.	1dd	.
.	.	.	.	2d\	.	.	.	.
.	.	.	.	2e\	.	.	1cc	.
.	.	.	.	2f\	.	.	.	.
=75	=75	=75	=75	=75	=75	=75	=75	=75
0r	.	0r	.	2g\	.	.	1b-	.
.	.	.	.	2b-\	.	.	.	.
.	.	.	.	4a\	.	.	1cc	.
.	.	.	.	4g\	.	.	.	.
.	.	.	.	4f\	.	.	.	.
.	.	.	.	4e\	.	.	.	.
=76	=76	=76	=76	=76	=76	=76	=76	=76
0r	.	0r	.	2d\	.	.	2b-\	.
.	.	.	.	1g	.	.	2g/	.
.	.	.	.	.	.	.	1a	.
.	.	.	.	2f#i\	.	.	.	.
=77	=77	=77	=77	=77	=77	=77	=77	=77
1r	.	1r	.	0g	.	.	2.g/	.
.	.	.	.	.	.	.	4a/	.
1G	.	1d	.	.	.	.	4b-\	.
.	.	.	.	.	.	.	4cc\	.
.	.	.	.	.	.	.	[2dd\	.
=78	=78	=78	=78	=78	=78	=78	=78	=78
1B-	.	1d	.	2r	.	.	4dd\]	.
.	.	.	.	.	.	.	4cc\	.
.	.	.	.	2d\	.	.	4dd\	.
.	.	.	.	.	.	.	4b-\	.
1A	.	1c	.	2e\	.	.	4cc\	.
.	.	.	.	.	.	.	4b-\	.
.	.	.	.	2f\	.	.	4cc\	.
.	.	.	.	.	.	.	4a/	.
=79	=79	=79	=79	=79	=79	=79	=79	=79
1G	.	1B-	.	1g	.	.	4b-\	.
.	.	.	.	.	.	.	4a/	.
.	.	.	.	.	.	.	4b-\	.
.	.	.	.	.	.	.	4g/	.
1F	.	1c	.	2r	.	.	4a/	.
.	.	.	.	.	.	.	4g/	.
.	.	.	.	2A/	.	.	4f/	.
.	.	.	.	.	.	.	4e/	.
=80	=80	=80	=80	=80	=80	=80	=80	=80
2G\	.	2B-\	.	2B-\	.	.	2d/	.
2E\	.	2G/	.	2c\	.	.	1g	.
1D	.	1A	.	1d	.	.	.	.
.	.	.	.	.	.	.	2f#i/	.
=81	=81	=81	=81	=81	=81	=81	=81	=81
0G	.	[0G	.	0B-	.	.	[0g	.
=82	=82	=82	=82	=82	=82	=82	=82	=82
1r	.	0G]	.	1r	.	.	0g]	.
1G	.	.	.	1d	.	.	.	.
=83	=83	=83	=83	=83	=83	=83	=83	=83
1.d	.	0r	.	1.f	.	.	0r	.
2c\	.	.	.	2e\	.	.	.	.
=84	=84	=84	=84	=84	=84	=84	=84	=84
1B-	.	0r	.	1d	.	.	0r	.
1A	.	.	.	1c	.	.	.	.
=85	=85	=85	=85	=85	=85	=85	=85	=85
0B-	.	1r	.	1.B-	.	.	1r	.
.	.	1d	.	.	.	.	1dd	.
.	.	.	.	2c\	.	.	.	.
=86	=86	=86	=86	=86	=86	=86	=86	=86
0BB-	.	1.f	.	1d	.	.	1.dd	.
.	.	.	.	1B-	.	.	.	.
.	.	2e\	.	.	.	.	2cc\	.
=87	=87	=87	=87	=87	=87	=87	=87	=87
1r	.	1d	.	1.f	.	.	1b-	.
1F	.	1c	.	.	.	.	1a	.
.	.	.	.	2e\	.	.	.	.
=88	=88	=88	=88	=88	=88	=88	=88	=88
1G	.	1.B-	.	2d\	.	.	1b-	.
.	.	.	.	2B-\	.	.	.	.
1F	.	.	.	[1f	.	.	1cc	.
.	.	2A/	.	.	.	.	.	.
=89	=89	=89	=89	=89	=89	=89	=89	=89
2BB-/	.	1B-	.	2f\]	.	.	1dd	.
2D\	.	.	.	2d\	.	.	.	.
1C	.	1c	.	1e	.	.	1g	.
=90	=90	=90	=90	=90	=90	=90	=90	=90
1BB-	.	1d	.	2f\	.	.	1.b-	.
.	.	.	.	2.B-\	.	.	.	.
[1B-	.	1G	.	.	.	.	.	.
.	.	.	.	4c\	.	.	.	.
.	.	.	.	2d\	.	.	2a/	.
=91	=91	=91	=91	=91	=91	=91	=91	=91
2B-\]	.	1B-	.	2G/	.	.	1g	.
4A\	.	.	.	2d\	.	.	.	.
4G\	.	.	.	.	.	.	.	.
2A\	.	2A/	.	2c\	.	.	2f/	.
2G\	.	2B-\	.	2d\	.	.	[2g/	.
=92	=92	=92	=92	=92	=92	=92	=92	=92
2E-\	.	2c\	.	2e-i\	.	.	4g/]	.
.	.	.	.	.	.	.	4f/	.
2F\	.	2A/	.	1.c	.	.	1f	.
1C	.	1G	.	.	.	.	.	.
.	.	.	.	.	.	.	2e/	.
=93	=93	=93	=93	=93	=93	=93	=93	=93
0D	.	0F	.	1A	.	.	0f	.
.	.	.	.	1d	.	.	.	.
=94	=94	=94	=94	=94	=94	=94	=94	=94
1r	.	1r	.	1r	.	.	1r	.
[1E-	.	[1B-	.	[1G	.	.	[1g	.
=95	=95	=95	=95	=95	=95	=95	=95	=95
2E-\]	.	2B-\]	.	2G/]	.	.	2g/]	.
2E-i\	.	2B-\	.	2G/	.	.	2g/	.
2E-i\	.	2B-\	.	2G/	.	.	2g/	.
2E-i\	.	2B-\	.	2G/	.	.	2g/	.
=96	=96	=96	=96	=96	=96	=96	=96	=96
1E-i	.	1B-	.	2.e-\	.	.	1g	.
.	.	.	.	4d\	.	.	.	.
2F\	.	2A/	.	2.c\	.	.	2f/	.
2C/	.	[2G/	.	.	.	.	[2e/	.
.	.	.	.	4B-\	.	.	.	.
=97	=97	=97	=97	=97	=97	=97	=97	=97
2D\	.	4G/]	.	2A/	.	.	4e/]	.
.	.	4F/	.	.	.	.	4d/	.
2BB-/	.	2D/	.	2G/	.	.	1d	.
1AA	.	1E	.	1A	.	.	.	.
.	.	.	.	.	.	.	2c#i/	.
=98	=98	=98	=98	=98	=98	=98	=98	=98
2r	.	[0D	.	2.F/	.	.	[0d	.
2D\	.	.	.	.	.	.	.	.
.	.	.	.	4G/	.	.	.	.
2.F\	.	.	.	2A/	.	.	.	.
.	.	.	.	2B-\	.	.	.	.
4G\	.	.	.	.	.	.	.	.
=99	=99	=99	=99	=99	=99	=99	=99	=99
2A\	.	0D_	.	2A/	.	.	0d_	.
2B-\	.	.	.	2.d\	.	.	.	.
2A\	.	.	.	.	.	.	.	.
.	.	.	.	4e\	.	.	.	.
[2d\	.	.	.	4f\	.	.	.	.
.	.	.	.	4g\	.	.	.	.
=100	=100	=100	=100	=100	=100	=100	=100	=100
2d\]	.	0D]	.	2a\	.	.	0d]	.
2B-\	.	.	.	1g	.	.	.	.
1A	.	.	.	.	.	.	.	.
.	.	.	.	2f#i\	.	.	.	.
=101	=101	=101	=101	=101	=101	=101	=101	=101
3%2GV	.	0r	.	3%4gV	.	.	0r	.
3%2G	.	.	.	.	.	.	.	.
3%2FZ	.	.	.	3%2rZ	.	.	.	.
=102	=102	=102	=102	=102	=102	=102	=102	=102
3%2GV	.	0r	.	3%2gV	.	.	0r	.
3%2B-	.	.	.	3%2g	.	.	.	.
3%2AZ	.	.	.	3%2fZ	.	.	.	.
=103	=103	=103	=103	=103	=103	=103	=103	=103
3%4GV	.	0r	.	3%2gV	.	.	0r	.
.	.	.	.	3%2b-	.	.	.	.
3%2FZ	.	.	.	3%2aZ	.	.	.	.
=104	=104	=104	=104	=104	=104	=104	=104	=104
3%2GV	.	3%2d	.	3%4gV	.	.	0r	.
3%2B-	.	3%2d	.	.	.	.	.	.
3%2AZ	.	3%2c	.	3%2fZ	.	.	.	.
=105	=105	=105	=105	=105	=105	=105	=105	=105
3%2GV	.	3%2d	.	3%2gV	.	.	3%2ddV	.
3%2D	.	3%2f	.	3%4aZ	.	.	3%2dd	.
3%2AZ	.	3%2e	.	.	.	.	3%2ccZ	.
=106	=106	=106	=106	=106	=106	=106	=106	=106
3%4DV	.	3%4dV	.	3%4fV	.	.	3%2ddV	.
.	.	.	.	.	.	.	3%2ff	.
3%2rZ	.	3%2cZ	.	3%2rZ	.	.	3%2eeZ	.
=107	=107	=107	=107	=107	=107	=107	=107	=107
0r	.	3%2dV	.	0r	.	.	3%4ddV	.
.	.	3%2f	.	.	.	.	.	.
.	.	3%2eZ	.	.	.	.	3%2ccZ	.
=108	=108	=108	=108	=108	=108	=108	=108	=108
0r	.	3%4dV	.	0r	.	.	3%2ddV	.
.	.	.	.	.	.	.	3%2ff	.
.	.	3%2cZ	.	.	.	.	3%2eeZ	.
=109	=109	=109	=109	=109	=109	=109	=109	=109
0r	.	3%2.fV	.	0r	.	.	3%2.ddV	.
.	.	3e\	.	.	.	.	3cc\	.
.	.	3%2dZ	.	.	.	.	3b-\	.
.	.	.	.	.	.	.	3a/Z	.
=110	=110	=110	=110	=110	=110	=110	=110	=110
0r	.	3%2cV	.	0r	.	.	3%4aV	.
.	.	3%4B-Z	.	.	.	.	.	.
.	.	.	.	.	.	.	3%2gZ	.
=111	=111	=111	=111	=111	=111	=111	=111	=111
0r	.	0A	.	0r	.	.	0a	.
=112	=112	=112	=112	=112	=112	=112	=112	=112
1r	.	1r	.	1r	.	.	1r	.
[1BB-	.	[1d	.	[1f	.	.	[1b-	.
=113	=113	=113	=113	=113	=113	=113	=113	=113
2BB-/]	.	2d\]	.	2f\]	.	.	2b-\]	.
2BB-/	.	2d\	.	2f\	.	.	2b-\	.
2BB-/	.	2d\	.	2f\	.	.	2b-\	.
2BB-/	.	2d\	.	2f\	.	.	2b-\	.
=114	=114	=114	=114	=114	=114	=114	=114	=114
2.F\	.	1c	.	1f	.	.	2cc\	.
.	.	.	.	.	.	.	1a	.
4E\	.	.	.	.	.	.	.	.
1D	.	1d	.	1f	.	.	.	.
.	.	.	.	.	.	.	2b-\	.
=115	=115	=115	=115	=115	=115	=115	=115	=115
1C	.	1e-	.	2g\	.	.	4cc\	.
.	.	.	.	.	.	.	4b-\	.
.	.	.	.	2c\	.	.	4a/	.
.	.	.	.	.	.	.	4g/	.
2BB-/	.	2d\	.	2.f\	.	.	2b-\	.
[2F\	.	[2c\	.	.	.	.	[2a/	.
.	.	.	.	4e\	.	.	.	.
=116	=116	=116	=116	=116	=116	=116	=116	=116
2F\]	.	2c\]	.	2f\	.	.	4a/]	.
.	.	.	.	.	.	.	4g/	.
2G\	.	2B-\	.	2.d\	.	.	1g	.
1D	.	1A	.	.	.	.	.	.
.	.	.	.	4c\	.	.	.	.
.	.	.	.	2d\	.	.	2f/	.
=117	=117	=117	=117	=117	=117	=117	=117	=117
2E-\	.	2G/	.	2B-\	.	.	2g/	.
2D\	.	2d\	.	2.f\	.	.	1a	.
2.F\	.	2c\	.	.	.	.	.	.
.	.	.	.	4e\	.	.	.	.
.	.	2d\	.	2f\	.	.	2b-\	.
4E-i\	.	.	.	.	.	.	.	.
=118	=118	=118	=118	=118	=118	=118	=118	=118
1C	.	1e-i	.	2g\	.	.	4cc\	.
.	.	.	.	.	.	.	4b-\	.
.	.	.	.	2c\	.	.	4a/	.
.	.	.	.	.	.	.	4g/	.
2BB-/	.	2d\	.	2.f\	.	.	2b-\	.
[2F\	.	[2c\	.	.	.	.	[2a/	.
.	.	.	.	4e\	.	.	.	.
=119	=119	=119	=119	=119	=119	=119	=119	=119
2F\]	.	4c\]	.	2f\	.	.	2a/]	.
.	.	4B-\	.	.	.	.	.	.
2G\	.	4A/	.	2.d\	.	.	1g	.
.	.	4G/	.	.	.	.	.	.
1D	.	1A	.	.	.	.	.	.
.	.	.	.	4c\	.	.	.	.
.	.	.	.	2d\	.	.	2f#i/	.
=120	=120	=120	=120	=120	=120	=120	=120	=120
[0Gl	.	[0Gl	.	2B-\	.	.	[0gl	.
.	.	.	.	1e-i	.	.	.	.
.	.	.	.	2d\	.	.	.	.
=121	=121	=121	=121	=121	=121	=121	=121	=121
0G]	.	0G]	.	0dl	.	.	0g]	.
!!LO:LB:i:g=z
=122||	=122||	=122||	=122||	=122||	=122||	=122||	=122||	=122||
*>C	*	*>C	*	*>C	*	*	*>C	*
!!section: Tertia pars: O intemerata virgo
!!!OMD: Tertia pars: O intemerata virgo
*M2/1	*	*M2/1	*	*M2/1	*	*	*M2/1	*
*met(C|)	*	*met(C|)	*	*met(C|)	*	*	*met(C|)	*
0r	.	0r	.	1.g	.	.	0r	.
.	.	.	.	2g\	.	.	.	.
=123	=123	=123	=123	=123	=123	=123	=123	=123
0r	.	0r	.	1g	.	.	1.dd	.
.	.	.	.	1f	.	.	.	.
.	.	.	.	.	.	.	2dd\	.
=124	=124	=124	=124	=124	=124	=124	=124	=124
0r	.	0r	.	1g	.	.	1dd	.
.	.	.	.	1e	.	.	1cc	.
=125	=125	=125	=125	=125	=125	=125	=125	=125
0r	.	0r	.	1d	.	.	1dd	.
.	.	.	.	2.d\	.	.	1b-	.
.	.	.	.	4e\	.	.	.	.
=126	=126	=126	=126	=126	=126	=126	=126	=126
0r	.	0r	.	4f\	.	.	2.a/	.
.	.	.	.	4g\	.	.	.	.
.	.	.	.	1f	.	.	.	.
.	.	.	.	.	.	.	4b-\	.
.	.	.	.	.	.	.	4cc\	.
.	.	.	.	.	.	.	4dd\	.
.	.	.	.	4e\	.	.	[2cc\	.
.	.	.	.	4d\	.	.	.	.
=127	=127	=127	=127	=127	=127	=127	=127	=127
0r	.	0r	.	2c\	.	.	4cc\]	.
.	.	.	.	.	.	.	4b-\	.
.	.	.	.	1g	.	.	4a/	.
.	.	.	.	.	.	.	4g/	.
.	.	.	.	.	.	.	1a	.
.	.	.	.	2f#i\	.	.	.	.
=128	=128	=128	=128	=128	=128	=128	=128	=128
1.G	.	0r	.	1g	.	.	0g	.
.	.	.	.	1G	.	.	.	.
2G\	.	.	.	.	.	.	.	.
=129	=129	=129	=129	=129	=129	=129	=129	=129
1G	.	1.d	.	1B-	.	.	0r	.
1F	.	.	.	1A	.	.	.	.
.	.	2d\	.	.	.	.	.	.
=130	=130	=130	=130	=130	=130	=130	=130	=130
1G	.	1d	.	1B-	.	.	0r	.
1E	.	1c	.	1G	.	.	.	.
=131	=131	=131	=131	=131	=131	=131	=131	=131
1D	.	1d	.	1A	.	.	0r	.
2.D\	.	1B-	.	1r	.	.	.	.
4E\	.	.	.	.	.	.	.	.
=132	=132	=132	=132	=132	=132	=132	=132	=132
4F\	.	2.A/	.	0r	.	.	0r	.
4G\	.	.	.	.	.	.	.	.
1F	.	.	.	.	.	.	.	.
.	.	4B-\	.	.	.	.	.	.
.	.	4c\	.	.	.	.	.	.
.	.	4d\	.	.	.	.	.	.
4E\	.	[2c\	.	.	.	.	.	.
4D\	.	.	.	.	.	.	.	.
=133	=133	=133	=133	=133	=133	=133	=133	=133
2C/	.	4c\]	.	0r	.	.	0r	.
.	.	4B-\	.	.	.	.	.	.
1G	.	4A/	.	.	.	.	.	.
.	.	4G/	.	.	.	.	.	.
.	.	1A	.	.	.	.	.	.
2F#i\	.	.	.	.	.	.	.	.
=134	=134	=134	=134	=134	=134	=134	=134	=134
0G	.	0G	.	1d	.	.	1r	.
.	.	.	.	1e	.	.	1g	.
=135	=135	=135	=135	=135	=135	=135	=135	=135
1r	.	0r	.	1f	.	.	1a	.
1G	.	.	.	1g	.	.	1b-	.
=136	=136	=136	=136	=136	=136	=136	=136	=136
1A	.	0r	.	2e\	.	.	1cc	.
.	.	.	.	2.f\	.	.	.	.
2F\	.	.	.	.	.	.	2a/	.
.	.	.	.	4e\	.	.	.	.
[2G\	.	.	.	4d\	.	.	[2b-\	.
.	.	.	.	4c\	.	.	.	.
=137	=137	=137	=137	=137	=137	=137	=137	=137
4G\]	.	1r	.	2B-\	.	.	4b-\]	.
4F\	.	.	.	.	.	.	4a/	.
2D\	.	.	.	1d	.	.	4g/	.
.	.	.	.	.	.	.	4f/	.
1E	.	1G	.	.	.	.	1g	.
.	.	.	.	2c#i\	.	.	.	.
=138	=138	=138	=138	=138	=138	=138	=138	=138
0D	.	1A	.	1d	.	.	0f	.
.	.	1B-	.	1d	.	.	.	.
=139	=139	=139	=139	=139	=139	=139	=139	=139
0r	.	1c	.	1e	.	.	0r	.
.	.	2A/	.	2f\	.	.	.	.
.	.	[2B-\	.	[2g\	.	.	.	.
=140	=140	=140	=140	=140	=140	=140	=140	=140
1r	.	4B-\]	.	2g\]	.	.	1r	.
.	.	4A/	.	.	.	.	.	.
.	.	4G/	.	1f	.	.	.	.
.	.	4F/	.	.	.	.	.	.
1C	.	1G	.	.	.	.	1g	.
.	.	.	.	2e\	.	.	.	.
=141	=141	=141	=141	=141	=141	=141	=141	=141
2.F\	.	0F	.	0f	.	.	2.a/	.
4G\	.	.	.	.	.	.	4b-\	.
2A\	.	.	.	.	.	.	2cc\	.
[2B-\	.	.	.	.	.	.	[2dd\	.
=142	=142	=142	=142	=142	=142	=142	=142	=142
4B-\]	.	1r	.	1.d	.	.	4dd\]	.
4A\	.	.	.	.	.	.	4cc\	.
1G	.	.	.	.	.	.	4b-\	.
.	.	.	.	.	.	.	4a/	.
.	.	1G	.	.	.	.	2b-\	.
4F\	.	.	.	2e\	.	.	4a/	.
4E\	.	.	.	.	.	.	4g/	.
=143	=143	=143	=143	=143	=143	=143	=143	=143
2D\	.	2.A/	.	0f	.	.	2f/	.
2.F\	.	.	.	.	.	.	2.a/	.
.	.	4B-\	.	.	.	.	.	.
.	.	2c\	.	.	.	.	.	.
4E\	.	.	.	.	.	.	4g/	.
4D\	.	[2d\	.	.	.	.	[2b-\	.
4C/	.	.	.	.	.	.	.	.
=144	=144	=144	=144	=144	=144	=144	=144	=144
2BB-/	.	4d\]	.	2r	.	.	4b-\]	.
.	.	4c\	.	.	.	.	4a/	.
2F\	.	4B-\	.	2f\	.	.	1a	.
.	.	4A/	.	.	.	.	.	.
1G	.	1B-	.	2.d\	.	.	.	.
.	.	.	.	.	.	.	2g/	.
.	.	.	.	4e\	.	.	.	.
=145	=145	=145	=145	=145	=145	=145	=145	=145
1D	.	0A	.	1.f	.	.	0a	.
[1F	.	.	.	.	.	.	.	.
.	.	.	.	4e\	.	.	.	.
.	.	.	.	4d\	.	.	.	.
=146	=146	=146	=146	=146	=146	=146	=146	=146
2F\]	.	1F	.	2c\	.	.	0r	.
4E\	.	.	.	1d	.	.	.	.
4D\	.	.	.	.	.	.	.	.
1E	.	1G	.	.	.	.	.	.
.	.	.	.	2c#i\	.	.	.	.
=147	=147	=147	=147	=147	=147	=147	=147	=147
0D	.	0A	.	0d	.	.	1r	.
.	.	.	.	.	.	.	1f	.
=148	=148	=148	=148	=148	=148	=148	=148	=148
0r	.	0r	.	1G	.	.	2g/	.
.	.	.	.	.	.	.	2b-\	.
.	.	.	.	[1d	.	.	2a/	.
.	.	.	.	.	.	.	[2b-\	.
=149	=149	=149	=149	=149	=149	=149	=149	=149
0r	.	1r	.	2d\]	.	.	2b-\]	.
.	.	.	.	2e\	.	.	4a/	.
.	.	.	.	.	.	.	4g/	.
.	.	1F	.	1f	.	.	1a	.
=150	=150	=150	=150	=150	=150	=150	=150	=150
2r	.	2G/	.	1B-	.	.	1g	.
2G\	.	2B-\	.	.	.	.	.	.
2F\	.	2A/	.	2c\	.	.	1r	.
2D\	.	[2B-\	.	[2d\	.	.	.	.
=151	=151	=151	=151	=151	=151	=151	=151	=151
1E	.	2B-\]	.	2d\]	.	.	2r	.
.	.	4A/	.	2c\	.	.	1g	.
.	.	4G/	.	.	.	.	.	.
1D	.	1A	.	1d	.	.	.	.
.	.	.	.	.	.	.	2f/	.
=152	=152	=152	=152	=152	=152	=152	=152	=152
0r	.	1G	.	2r	.	.	2g/	.
.	.	.	.	2.g\	.	.	2.b-\	.
.	.	1r	.	.	.	.	.	.
.	.	.	.	4f\	.	.	4a/	.
.	.	.	.	4e\	.	.	[2cc\	.
.	.	.	.	4d\	.	.	.	.
=153	=153	=153	=153	=153	=153	=153	=153	=153
0r	.	2r	.	2f\	.	.	4cc\]	.
.	.	.	.	.	.	.	4b-\	.
.	.	1G	.	2B-\	.	.	1b-	.
.	.	.	.	1c	.	.	.	.
.	.	2F/	.	.	.	.	2a/	.
=154	=154	=154	=154	=154	=154	=154	=154	=154
2r	.	2G/	.	1B-	.	.	1b-	.
1G	.	2.B-\	.	.	.	.	.	.
.	.	.	.	1r	.	.	1r	.
.	.	4A/	.	.	.	.	.	.
2E\	.	[2c\	.	.	.	.	.	.
=155	=155	=155	=155	=155	=155	=155	=155	=155
2F\	.	4c\]	.	0r	.	.	0r	.
.	.	4B-\	.	.	.	.	.	.
2D\	.	1B-	.	.	.	.	.	.
1C	.	.	.	.	.	.	.	.
.	.	2A/	.	.	.	.	.	.
=156	=156	=156	=156	=156	=156	=156	=156	=156
2BB-/	.	1B-	.	2.d\	.	.	1r	.
1B-	.	.	.	.	.	.	.	.
.	.	.	.	4e\	.	.	.	.
.	.	1d	.	2f\	.	.	1b-	.
4A\	.	.	.	2g\	.	.	.	.
4G\	.	.	.	.	.	.	.	.
=157	=157	=157	=157	=157	=157	=157	=157	=157
2A\	.	2c\	.	2e\	.	.	1a	.
2F\	.	2d\	.	2f\	.	.	.	.
1G	.	2B-\	.	2d\	.	.	1b-	.
.	.	2d\	.	2g\	.	.	.	.
=158	=158	=158	=158	=158	=158	=158	=158	=158
2r	.	2c\	.	2e\	.	.	2.cc\	.
2D\	.	2d\	.	2.f\	.	.	.	.
.	.	.	.	.	.	.	4b-\	.
2.F\	.	2A/	.	.	.	.	4a/	.
.	.	.	.	4e\	.	.	4g/	.
.	.	[2c\	.	4c\	.	.	[2a/	.
4E\	.	.	.	4d\	.	.	.	.
=159	=159	=159	=159	=159	=159	=159	=159	=159
2C/	.	4c\]	.	2e\	.	.	2a/]	.
.	.	4B-\	.	.	.	.	.	.
2E\	.	2G/	.	2c\	.	.	1g	.
1D	.	1A	.	1d	.	.	.	.
.	.	.	.	.	.	.	2f#i/	.
=160	=160	=160	=160	=160	=160	=160	=160	=160
0G	.	0G	.	1.B-	.	.	1g	.
.	.	.	.	.	.	.	1r	.
.	.	.	.	4A/	.	.	.	.
.	.	.	.	4G/	.	.	.	.
=161	=161	=161	=161	=161	=161	=161	=161	=161
0r	.	0r	.	1A	.	.	1f	.
.	.	.	.	1G	.	.	1g	.
=162	=162	=162	=162	=162	=162	=162	=162	=162
0r	.	1.B-	.	0r	.	.	1g	.
.	.	.	.	.	.	.	1r	.
.	.	4A/	.	.	.	.	.	.
.	.	4G/	.	.	.	.	.	.
=163	=163	=163	=163	=163	=163	=163	=163	=163
0r	.	1A	.	1r	.	.	1f	.
.	.	1G	.	2r	.	.	[1g	.
.	.	.	.	[2g\	.	.	.	.
=164	=164	=164	=164	=164	=164	=164	=164	=164
0r	.	0r	.	2g\]	.	.	2g/]	.
.	.	.	.	2f\	.	.	2a/	.
.	.	.	.	2d\	.	.	2b-\	.
.	.	.	.	[2e-\	.	.	[2cc\	.
=165	=165	=165	=165	=165	=165	=165	=165	=165
0r	.	1r	.	4e-\]	.	.	4cc\]	.
.	.	.	.	4d\	.	.	4b-\	.
.	.	.	.	4c\	.	.	1b-	.
.	.	.	.	4B-\	.	.	.	.
.	.	1F	.	1c	.	.	.	.
.	.	.	.	.	.	.	2a/	.
=166	=166	=166	=166	=166	=166	=166	=166	=166
2r	.	2.G/	.	2.B-\	.	.	1b-	.
1G	.	.	.	.	.	.	.	.
.	.	4A/	.	4A/	.	.	.	.
.	.	2B-\	.	4G/	.	.	1r	.
.	.	.	.	4F/	.	.	.	.
2E\	.	[2c\	.	2G/	.	.	.	.
=167	=167	=167	=167	=167	=167	=167	=167	=167
2F\	.	4c\]	.	2A/	.	.	0r	.
.	.	4B-\	.	.	.	.	.	.
2D\	.	1B-	.	1F	.	.	.	.
1C	.	.	.	.	.	.	.	.
.	.	2A/	.	2E/	.	.	.	.
=168	=168	=168	=168	=168	=168	=168	=168	=168
0BB-	.	0B-	.	2F/	.	.	1r	.
.	.	.	.	2.B-\	.	.	.	.
.	.	.	.	.	.	.	1b-	.
.	.	.	.	4c\	.	.	.	.
.	.	.	.	4d\	.	.	.	.
.	.	.	.	4e\	.	.	.	.
=169	=169	=169	=169	=169	=169	=169	=169	=169
0r	.	0r	.	2.f\	.	.	2a/	.
.	.	.	.	.	.	.	2cc\	.
.	.	.	.	4e\	.	.	.	.
.	.	.	.	2d\	.	.	2b-\	.
.	.	.	.	2c\	.	.	[2a/	.
=170	=170	=170	=170	=170	=170	=170	=170	=170
0r	.	1r	.	2d\	.	.	2a/]	.
.	.	.	.	2A/	.	.	4g/	.
.	.	.	.	.	.	.	4f/	.
.	.	1B-	.	1r	.	.	1g	.
=171	=171	=171	=171	=171	=171	=171	=171	=171
2.F\	.	2A/	.	0r	.	.	1a	.
.	.	2c\	.	.	.	.	.	.
4E\	.	.	.	.	.	.	.	.
2D\	.	2B-\	.	.	.	.	1r	.
2C/	.	[2A/	.	.	.	.	.	.
=172	=172	=172	=172	=172	=172	=172	=172	=172
2D\	.	2A/]	.	0r	.	.	0r	.
2AA/	.	4G/	.	.	.	.	.	.
.	.	4F/	.	.	.	.	.	.
1BB-	.	1G	.	.	.	.	.	.
=173	=173	=173	=173	=173	=173	=173	=173	=173
1AA	.	0A	.	1c	.	.	1r	.
1D	.	.	.	1d	.	.	1f	.
=174	=174	=174	=174	=174	=174	=174	=174	=174
1C	.	0r	.	2e\	.	.	1g	.
.	.	.	.	2c\	.	.	.	.
1G	.	.	.	2.d\	.	.	1b-	.
.	.	.	.	4e\	.	.	.	.
=175	=175	=175	=175	=175	=175	=175	=175	=175
1F	.	1r	.	1f	.	.	2a/	.
.	.	.	.	.	.	.	2.cc\	.
1c	.	1F	.	1f	.	.	.	.
.	.	.	.	.	.	.	4b-\	.
.	.	.	.	.	.	.	2a/	.
=176	=176	=176	=176	=176	=176	=176	=176	=176
1B-	.	1G	.	1d	.	.	2g/	.
.	.	.	.	.	.	.	2.b-\	.
1G	.	1B-	.	1g	.	.	.	.
.	.	.	.	.	.	.	4cc\	.
.	.	.	.	.	.	.	2dd\	.
=177	=177	=177	=177	=177	=177	=177	=177	=177
1A	.	2A/	.	1e	.	.	2cc\	.
.	.	2.c\	.	.	.	.	2.a/	.
1F	.	.	.	1f	.	.	.	.
.	.	4B-\	.	.	.	.	4b-\	.
.	.	2A/	.	.	.	.	2cc\	.
=178	=178	=178	=178	=178	=178	=178	=178	=178
1G	.	2G/	.	2.d\	.	.	2b-\	.
.	.	2.B-\	.	.	.	.	2.dd\	.
.	.	.	.	4e\	.	.	.	.
2r	.	.	.	2f\	.	.	.	.
.	.	4c\	.	.	.	.	4cc\	.
2G\	.	2d\	.	2g\	.	.	[2b-\	.
=179	=179	=179	=179	=179	=179	=179	=179	=179
4A\	.	2c\	.	2e\	.	.	4b-\]	.
4G\	.	.	.	.	.	.	4a/	.
4F\	.	2.A/	.	2f\	.	.	2.cc\	.
4E\	.	.	.	.	.	.	.	.
[1F	.	.	.	2c\	.	.	.	.
.	.	4B-\	.	.	.	.	4b-\	.
.	.	[2c\	.	[2f\	.	.	4a/	.
.	.	.	.	.	.	.	4g/	.
=180	=180	=180	=180	=180	=180	=180	=180	=180
2F\]	.	4c\]	.	4f\]	.	.	2a/	.
.	.	4B-\	.	4e\	.	.	.	.
2G\	.	4A/	.	4d\	.	.	1g	.
.	.	4G/	.	4c\	.	.	.	.
1D	.	1A	.	1d	.	.	.	.
.	.	.	.	.	.	.	2f#i/	.
=181	=181	=181	=181	=181	=181	=181	=181	=181
[0G	.	0G	.	1B-	.	.	1g	.
.	.	.	.	1G	.	.	1r	.
=182	=182	=182	=182	=182	=182	=182	=182	=182
0G]	.	0r	.	3%4gV	.	.	3%4b-V	.
.	.	.	.	3%2gZ	.	.	3%2b-Z	.
=183	=183	=183	=183	=183	=183	=183	=183	=183
0r	.	0r	.	3%2fV	.	.	3%2aV	.
.	.	.	.	3%2g	.	.	3%2b-	.
.	.	.	.	3%2eZ	.	.	3%2ccZ	.
=184	=184	=184	=184	=184	=184	=184	=184	=184
0r	.	0r	.	3%4dV	.	.	3%4ddV	.
.	.	.	.	3%2eZ	.	.	3%2ccZ	.
=185	=185	=185	=185	=185	=185	=185	=185	=185
0r	.	0r	.	3%2gV	.	.	3%2b-V	.
.	.	.	.	3%2.f#i	.	.	3%4aZ	.
.	.	.	.	3e\Z	.	.	.	.
=186	=186	=186	=186	=186	=186	=186	=186	=186
!! Cannot start and stop tuplet in muse2ps [20111017], so placing a
!! italic three above the note to indicate that it is triplet
!	!	!	!	!LO:TX:Z=15:i:t=3	!	!	!LO:TX:Z=-20:i:t=3	!
3%4GV	.	3%4B-V	.	3%4.g	.	.	3%4.g	.
3%2GZ	.	3%2B-Z	.	.	.	.	.	.
=187	=187	=187	=187	=187	=187	=187	=187	=187
3%2FV	.	3%2AV	.	0r	.	.	0r	.
3%2G	.	3%2B-	.	.	.	.	.	.
3%2EZ	.	3%2cZ	.	.	.	.	.	.
=188	=188	=188	=188	=188	=188	=188	=188	=188
3%4DV	.	3%4dV	.	0r	.	.	0r	.
3%2EZ	.	3%2cZ	.	.	.	.	.	.
=189	=189	=189	=189	=189	=189	=189	=189	=189
3%2GV	.	3%2B-V	.	0r	.	.	0r	.
3%2.F#i	.	3%4AZ	.	.	.	.	.	.
3E\Z	.	.	.	.	.	.	.	.
=190	=190	=190	=190	=190	=190	=190	=190	=190
!! Cannot start and stop tuplet in muse2ps [20111017], so placing a
!! italic three above the note to indicate that it is triplet
!LO:TX:Z=5:i:t=3	!	!LO:TX:Z=-10:i:t=3	!	!	!	!	!	!
3%4.G	.	3%4.B-	.	0r	.	.	3%4b-V	.
.	.	.	.	.	.	.	3%2ccZ	.
=191	=191	=191	=191	=191	=191	=191	=191	=191
0r	.	0r	.	3%4B-V	.	.	3%4ddV	.
.	.	.	.	3%2cZ	.	.	3%2ee-iZ	.
=192	=192	=192	=192	=192	=192	=192	=192	=192
0r	.	0r	.	3%4dV	.	.	3%2ddV	.
.	.	.	.	.	.	.	3%2b-	.
.	.	.	.	3%2eZ	.	.	3%2ccZ	.
=193	=193	=193	=193	=193	=193	=193	=193	=193
0r	.	3%4B-V	.	3%2fV	.	.	3%4ddV	.
.	.	.	.	3%2g	.	.	.	.
.	.	3%2cZ	.	3%2eZ	.	.	3%2rZ	.
=194	=194	=194	=194	=194	=194	=194	=194	=194
3%4BB-V	.	3%4dV	.	3%4dV	.	.	0r	.
3%2CZ	.	3%2e-iZ	.	3%2cZ	.	.	.	.
=195	=195	=195	=195	=195	=195	=195	=195	=195
3%4DV	.	3%2dV	.	3%2AV	.	.	0r	.
.	.	3%2B-	.	3%2B-	.	.	.	.
3%2E-iZ	.	3%2cZ	.	3%2GZ	.	.	.	.
=196	=196	=196	=196	=196	=196	=196	=196	=196
3%2DV	.	3%4dV	.	3%2AV	.	.	3%4ddV	.
3%2BB-	.	.	.	3%2B-	.	.	.	.
3%2CZ	.	3%2rZ	.	3%2GZ	.	.	3%2eeZ	.
=197	=197	=197	=197	=197	=197	=197	=197	=197
3%4DV	.	0r	.	3%2FV	.	.	3%4ffV	.
.	.	.	.	3%2B-	.	.	.	.
3%2rZ	.	.	.	3%2cZ	.	.	3%2eeZ	.
=198	=198	=198	=198	=198	=198	=198	=198	=198
3%4DV	.	3%4dV	.	3%2dV	.	.	3%2.ddV	.
.	.	.	.	3%2A	.	.	.	.
.	.	.	.	.	.	.	3cc\	.
3%2GZ	.	3%2eZ	.	3%2B-Z	.	.	3%2b-Z	.
=199	=199	=199	=199	=199	=199	=199	=199	=199
3%2FV	.	3%4fV	.	3%2cV	.	.	3%4aV	.
3%2D	.	.	.	3%2d	.	.	.	.
3%2AZ	.	3%2eZ	.	3%2AZ	.	.	3%2ccZ	.
=200	=200	=200	=200	=200	=200	=200	=200	=200
3%2B-V	.	3%2.dV	.	3%2.fV	.	.	3%2b-V	.
3%2F	.	.	.	.	.	.	3%2a	.
.	.	3c\	.	3e\	.	.	.	.
3%2GZ	.	3%2B-Z	.	3%2dZ	.	.	3%2b-Z	.
=201	=201	=201	=201	=201	=201	=201	=201	=201
3%2AV	.	3%4AV	.	3%2cV	.	.	3%2ccV	.
3%4FZ	.	.	.	3%4fZ	.	.	3%4aZ	.
.	.	3%2cZ	.	.	.	.	.	.
=202	=202	=202	=202	=202	=202	=202	=202	=202
3%2GV	.	3%2B-V	.	3%2eV	.	.	3%2gV	.
3%2F	.	3%2A	.	3%2f	.	.	3%2.a	.
3%2GZ	.	3%2B-Z	.	3%2dZ	.	.	.	.
.	.	.	.	.	.	.	3g/Z	.
=203	=203	=203	=203	=203	=203	=203	=203	=203
3%2CV	.	3%2cV	.	3%2e-iV	.	.	3%4gV\	.
3%4DZ	.	3%4AZ	.	3%4dZ	.	.	.	.
.	.	.	.	.	.	.	3%2f#iZ\	.
=204	=204	=204	=204	=204	=204	=204	=204	=204
1.d	.	[0G	.	1B-	.	.	0g	.
.	.	.	.	1G	.	.	.	.
[2B-\	.	.	.	.	.	.	.	.
=205	=205	=205	=205	=205	=205	=205	=205	=205
4B-\]	.	0G]	.	2r	.	.	0r	.
4A\	.	.	.	.	.	.	.	.
1G	.	.	.	2d\	.	.	.	.
.	.	.	.	2d\	.	.	.	.
4F\	.	.	.	2e\	.	.	.	.
4E\	.	.	.	.	.	.	.	.
=206	=206	=206	=206	=206	=206	=206	=206	=206
1D	.	0r	.	2.f\	.	.	2r	.
.	.	.	.	.	.	.	2dd\	.
.	.	.	.	4e\	.	.	.	.
1r	.	.	.	2d\	.	.	2dd\	.
.	.	.	.	2c\	.	.	2ee\	.
=207	=207	=207	=207	=207	=207	=207	=207	=207
0r	.	2r	.	1d	.	.	2.ff\	.
.	.	2d\	.	.	.	.	.	.
.	.	.	.	.	.	.	4ee\	.
.	.	2d\	.	1r	.	.	2dd\	.
.	.	2e\	.	.	.	.	2cc\	.
=208	=208	=208	=208	=208	=208	=208	=208	=208
2r	.	2.f\	.	0r	.	.	1dd	.
2D\	.	.	.	.	.	.	.	.
.	.	4e\	.	.	.	.	.	.
2D\	.	2d\	.	.	.	.	1r	.
2E\	.	2c\	.	.	.	.	.	.
=209	=209	=209	=209	=209	=209	=209	=209	=209
2.F\	.	1d	.	2r	.	.	0r	.
.	.	.	.	2A/	.	.	.	.
4E\	.	.	.	.	.	.	.	.
2D\	.	1r	.	2B-\	.	.	.	.
2C/	.	.	.	2c\	.	.	.	.
=210	=210	=210	=210	=210	=210	=210	=210	=210
1D	.	1r	.	2A/	.	.	2r	.
.	.	.	.	2.d\	.	.	2dd\	.
[1G	.	2r	.	.	.	.	2.dd\	.
.	.	.	.	4c\	.	.	.	.
.	.	2d\	.	4B-\	.	.	.	.
.	.	.	.	4A/	.	.	4cc\	.
=211	=211	=211	=211	=211	=211	=211	=211	=211
2G\]	.	2.d\	.	2G/	.	.	2b-\	.
2D\	.	.	.	2.d\	.	.	2a/	.
.	.	4c\	.	.	.	.	.	.
2G\	.	2B-\	.	.	.	.	2g/	.
.	.	.	.	4e\	.	.	.	.
2F\	.	2A/	.	2f\	.	.	2cc\	.
=212	=212	=212	=212	=212	=212	=212	=212	=212
2G\	.	2G/	.	2d\	.	.	2b-\	.
2F\	.	2c\	.	2f\	.	.	2a/	.
2G\	.	2B-\	.	2e\	.	.	2g/	.
2F\	.	2A/	.	2f\	.	.	2cc\	.
=213	=213	=213	=213	=213	=213	=213	=213	=213
2G\	.	2G/	.	2d\	.	.	2b-\	.
2C/	.	2c\	.	2e\	.	.	2.g/	.
2.G\	.	2B-\	.	1d	.	.	.	.
.	.	.	.	.	.	.	4a/	.
.	.	[2G/	.	.	.	.	4b-\	.
4A\	.	.	.	.	.	.	4cc\	.
=214	=214	=214	=214	=214	=214	=214	=214	=214
4B-\	.	4G/]	.	2.G/	.	.	2dd\	.
4c\	.	4A/	.	.	.	.	.	.
2d\	.	4B-\	.	.	.	.	2g/	.
.	.	4c\	.	4A/	.	.	.	.
2G\	.	2d\	.	4B-\	.	.	2r	.
.	.	.	.	4c\	.	.	.	.
[2B-\	.	2G/	.	2d\	.	.	[2dd\	.
=215	=215	=215	=215	=215	=215	=215	=215	=215
4B-\]	.	2r	.	2G/	.	.	4dd\]	.
4A\	.	.	.	.	.	.	4cc\	.
4G\	.	1d	.	1g	.	.	4b-\	.
4F\	.	.	.	.	.	.	4a/	.
2G\	.	.	.	.	.	.	2b-\	.
2A\	.	[2c\	.	2e\	.	.	4cc\	.
.	.	.	.	.	.	.	4b-\	.
=216	=216	=216	=216	=216	=216	=216	=216	=216
2F\	.	2c\]	.	2f\	.	.	4a/	.
.	.	.	.	.	.	.	4g/	.
2G\	.	2B-\	.	2.d\	.	.	1g	.
1Dl	.	1Al	.	.	.	.	.	.
.	.	.	.	4c\	.	.	.	.
.	.	.	.	2A/l	.	.	2f#i/l	.
=217	=217	=217	=217	=217	=217	=217	=217	=217
0G	.	0G	.	0B-	.	.	0g	.
!!LO:LB:i:g=z
=218||	=218||	=218||	=218||	=218||	=218||	=218||	=218||	=218||
*>D	*	*>D	*	*>D	*	*	*>D	*
!!section: Quarta pars: O Maria
!!!OMD: Quarta pars: O Maria
*M2/1	*	*M2/1	*	*M2/1	*	*	*M2/1	*
*met(C|)	*	*met(C|)	*	*met(C|)	*	*	*met(C|)	*
0G	.	0r	.	0g	.	.	0r	.
=219	=219	=219	=219	=219	=219	=219	=219	=219
1A	.	0r	.	1f	.	.	0r	.
1B-	.	.	.	1g	.	.	.	.
=220	=220	=220	=220	=220	=220	=220	=220	=220
0G	.	0d	.	0g	.	.	0dd	.
=221	=221	=221	=221	=221	=221	=221	=221	=221
0r	.	1e	.	0r	.	.	1cc	.
.	.	1f	.	.	.	.	1dd	.
=222	=222	=222	=222	=222	=222	=222	=222	=222
1r	.	[0d	.	0r	.	.	0dd	.
1G	.	.	.	.	.	.	.	.
=223	=223	=223	=223	=223	=223	=223	=223	=223
1G	.	0d]	.	1r	.	.	0r	.
1G	.	.	.	1d	.	.	.	.
=224	=224	=224	=224	=224	=224	=224	=224	=224
1.B-	.	0r	.	1d	.	.	1r	.
.	.	.	.	1d	.	.	1dd	.
2c\	.	.	.	.	.	.	.	.
=225	=225	=225	=225	=225	=225	=225	=225	=225
1d	.	1r	.	1.f	.	.	1dd	.
1D	.	1d	.	.	.	.	1dd	.
.	.	.	.	2g\	.	.	.	.
=226	=226	=226	=226	=226	=226	=226	=226	=226
1r	.	1d	.	1a	.	.	1.ff	.
[1D	.	1d	.	[1d	.	.	.	.
.	.	.	.	.	.	.	2ee\	.
=227	=227	=227	=227	=227	=227	=227	=227	=227
2D\]	.	1.f	.	2d\]	.	.	1dd	.
2E\	.	.	.	4c\	.	.	.	.
.	.	.	.	4B-\	.	.	.	.
1F	.	.	.	1A	.	.	1cc	.
.	.	2e\	.	.	.	.	.	.
=228	=228	=228	=228	=228	=228	=228	=228	=228
1BB-	.	1d	.	2B-\	.	.	1b-	.
.	.	.	.	2.f\	.	.	.	.
1F	.	1c	.	.	.	.	1a	.
.	.	.	.	4g\	.	.	.	.
.	.	.	.	2a\	.	.	.	.
=229	=229	=229	=229	=229	=229	=229	=229	=229
2r	.	1B-	.	2d\	.	.	1g	.
2G\	.	.	.	2.g\	.	.	.	.
2A\	.	1A	.	.	.	.	[1cc	.
.	.	.	.	4c\	.	.	.	.
2F\	.	.	.	[2f\	.	.	.	.
=230	=230	=230	=230	=230	=230	=230	=230	=230
1G	.	1G	.	4f\]	.	.	2cc\]	.
.	.	.	.	4d\	.	.	.	.
.	.	.	.	2e\	.	.	2b-\	.
1F	.	[1c	.	1f	.	.	1a	.
=231	=231	=231	=231	=231	=231	=231	=231	=231
2r	.	2c\]	.	1g	.	.	1g	.
2G\	.	2B-\	.	.	.	.	.	.
2A\	.	1A	.	2c\	.	.	[1cc	.
2F\	.	.	.	[2f\	.	.	.	.
=232	=232	=232	=232	=232	=232	=232	=232	=232
1G	.	1G	.	2f\]	.	.	2cc\]	.
.	.	.	.	2e\	.	.	2b-\	.
1F	.	[1c	.	1f	.	.	2cc\	.
.	.	.	.	.	.	.	2a/	.
=233	=233	=233	=233	=233	=233	=233	=233	=233
1G	.	2c\]	.	2r	.	.	2g/	.
.	.	2B-\	.	2d\	.	.	2b-\	.
2r	.	1c	.	1e	.	.	2a/	.
2C/	.	.	.	.	.	.	[2g/	.
=234	=234	=234	=234	=234	=234	=234	=234	=234
2D\	.	2A/	.	1d	.	.	4g/]	.
.	.	.	.	.	.	.	4f/	.
2BB-/	.	2B-\	.	.	.	.	1f	.
1C	.	1G	.	1c	.	.	.	.
.	.	.	.	.	.	.	2e/	.
=235	=235	=235	=235	=235	=235	=235	=235	=235
0D	.	0F	.	1A	.	.	[0f	.
.	.	.	.	[1d	.	.	.	.
=236	=236	=236	=236	=236	=236	=236	=236	=236
1.BB-	.	1.B-	.	2d\]	.	.	0f]	.
.	.	.	.	2e\	.	.	.	.
.	.	.	.	[1f	.	.	.	.
2C/	.	2B-\	.	.	.	.	.	.
=237	=237	=237	=237	=237	=237	=237	=237	=237
2D\	.	1B-	.	2f\]	.	.	0r	.
2E\	.	.	.	4e\	.	.	.	.
.	.	.	.	4d\	.	.	.	.
1F	.	1A	.	2c\	.	.	.	.
.	.	.	.	4B-\	.	.	.	.
.	.	.	.	4A/	.	.	.	.
=238	=238	=238	=238	=238	=238	=238	=238	=238
2G\	.	1B-	.	1G	.	.	0r	.
1B-	.	.	.	.	.	.	.	.
.	.	1c	.	1F	.	.	.	.
2A\	.	.	.	.	.	.	.	.
=239	=239	=239	=239	=239	=239	=239	=239	=239
0B-	.	0d	.	1.f	.	.	1.b-	.
.	.	.	.	2f\	.	.	2b-\	.
=240	=240	=240	=240	=240	=240	=240	=240	=240
0r	.	1B-	.	1f	.	.	1b-	.
.	.	1c	.	1e	.	.	1a	.
=241	=241	=241	=241	=241	=241	=241	=241	=241
0r	.	1d	.	1f	.	.	1b-	.
.	.	1e	.	1g	.	.	1cc	.
=242	=242	=242	=242	=242	=242	=242	=242	=242
0r	.	2f\	.	1.a	.	.	1.dd	.
.	.	1d	.	.	.	.	.	.
.	.	[2g\	.	[2b-\	.	.	[2ee-i\	.
=243	=243	=243	=243	=243	=243	=243	=243	=243
0r	.	4g\]	.	4b-\]	.	.	4ee-\]	.
.	.	4f\	.	4a\	.	.	4dd\	.
.	.	2d\	.	1a	.	.	1dd	.
.	.	1e-i	.	.	.	.	.	.
.	.	.	.	2g\	.	.	2cc\	.
=244	=244	=244	=244	=244	=244	=244	=244	=244
0r	.	1.d	.	2.a\	.	.	0dd	.
.	.	.	.	4g\	.	.	.	.
.	.	.	.	4f\	.	.	.	.
.	.	.	.	4e\	.	.	.	.
.	.	[2f\	.	2d\	.	.	.	.
=245	=245	=245	=245	=245	=245	=245	=245	=245
2r	.	4f\]	.	0r	.	.	0r	.
.	.	4e\	.	.	.	.	.	.
2D\	.	2d\	.	.	.	.	.	.
2E\	.	2c\	.	.	.	.	.	.
[2F\	.	[2d\	.	.	.	.	.	.
=246	=246	=246	=246	=246	=246	=246	=246	=246
4F\]	.	4d\]	.	0r	.	.	0r	.
4E\	.	4c\	.	.	.	.	.	.
2D\	.	1B-	.	.	.	.	.	.
1C	.	.	.	.	.	.	.	.
.	.	2A/	.	.	.	.	.	.
=247	=247	=247	=247	=247	=247	=247	=247	=247
1BB-	.	1B-	.	0r	.	.	2r	.
.	.	.	.	.	.	.	2dd\	.
1r	.	1r	.	.	.	.	2ee\	.
.	.	.	.	.	.	.	[2ff\	.
=248	=248	=248	=248	=248	=248	=248	=248	=248
0r	.	0r	.	2r	.	.	4ff\]	.
.	.	.	.	.	.	.	4ee\	.
.	.	.	.	2d\	.	.	2dd\	.
.	.	.	.	2e\	.	.	2cc\	.
.	.	.	.	[2f\	.	.	[2dd\	.
=249	=249	=249	=249	=249	=249	=249	=249	=249
0r	.	0r	.	4f\]	.	.	4dd\]	.
.	.	.	.	4e\	.	.	4cc\	.
.	.	.	.	2d\	.	.	1b-	.
.	.	.	.	1c	.	.	.	.
.	.	.	.	.	.	.	2a/	.
=250	=250	=250	=250	=250	=250	=250	=250	=250
0r	.	2r	.	1B-	.	.	1b-	.
.	.	2B-\	.	.	.	.	.	.
.	.	2c\	.	1r	.	.	1r	.
.	.	[2d\	.	.	.	.	.	.
=251	=251	=251	=251	=251	=251	=251	=251	=251
2r	.	4d\]	.	0r	.	.	0r	.
.	.	4c\	.	.	.	.	.	.
2B-\	.	2B-\	.	.	.	.	.	.
2c\	.	2A/	.	.	.	.	.	.
[2d\	.	[2B-\	.	.	.	.	.	.
=252	=252	=252	=252	=252	=252	=252	=252	=252
4d\]	.	4B-\]	.	0r	.	.	0r	.
4c\	.	4A/	.	.	.	.	.	.
2B-\	.	1G	.	.	.	.	.	.
1A	.	.	.	.	.	.	.	.
.	.	2F#i/	.	.	.	.	.	.
=253	=253	=253	=253	=253	=253	=253	=253	=253
1G	.	1G	.	0r	.	.	2r	.
.	.	.	.	.	.	.	2b-\	.
2A\	.	1r	.	.	.	.	2cc\	.
[2B-\	.	.	.	.	.	.	[2dd\	.
=254	=254	=254	=254	=254	=254	=254	=254	=254
2B-\]	.	0r	.	2r	.	.	4dd\]	.
.	.	.	.	.	.	.	4cc\	.
4A\	.	.	.	2B-\	.	.	2b-\	.
4G\	.	.	.	.	.	.	.	.
2A\	.	.	.	2c\	.	.	2a/	.
[2G\	.	.	.	[2d\	.	.	[2b-\	.
=255	=255	=255	=255	=255	=255	=255	=255	=255
2G\]	.	0r	.	4d\]	.	.	4b-\]	.
.	.	.	.	4c\	.	.	4a/	.
2G\	.	.	.	2B-\	.	.	1g	.
1D	.	.	.	1A	.	.	.	.
.	.	.	.	.	.	.	2f/	.
=256	=256	=256	=256	=256	=256	=256	=256	=256
0r	.	2r	.	1G	.	.	4g/	.
.	.	.	.	.	.	.	4a/	.
.	.	2g\	.	.	.	.	4b-\	.
.	.	.	.	.	.	.	4cc\	.
.	.	2f\	.	1r	.	.	2dd\	.
.	.	[2g\	.	.	.	.	[2ee-i\	.
=257	=257	=257	=257	=257	=257	=257	=257	=257
0r	.	4g\]	.	1r	.	.	4ee-\]	.
.	.	4f\	.	.	.	.	4dd\	.
.	.	2d\	.	.	.	.	1dd	.
.	.	1e-i	.	1g	.	.	.	.
.	.	.	.	.	.	.	2cc\	.
=258	=258	=258	=258	=258	=258	=258	=258	=258
2r	.	1d	.	2.f\	.	.	1dd	.
1d	.	.	.	.	.	.	.	.
.	.	.	.	8g\L	.	.	.	.
.	.	.	.	8a\J	.	.	.	.
.	.	1r	.	2b-\	.	.	1r	.
2c\	.	.	.	[2a\	.	.	.	.
=259	=259	=259	=259	=259	=259	=259	=259	=259
2B-\	.	0r	.	4a\]	.	.	0r	.
.	.	.	.	4g\	.	.	.	.
2G\	.	.	.	1g	.	.	.	.
1A	.	.	.	.	.	.	.	.
.	.	.	.	2f#i\	.	.	.	.
=260	=260	=260	=260	=260	=260	=260	=260	=260
1G	.	2r	.	1g	.	.	2.g/	.
.	.	1g	.	.	.	.	.	.
.	.	.	.	.	.	.	4a/	.
1r	.	.	.	1r	.	.	4b-\	.
.	.	.	.	.	.	.	4cc\	.
.	.	2f\	.	.	.	.	[2dd\	.
=261	=261	=261	=261	=261	=261	=261	=261	=261
0r	.	2e\	.	0r	.	.	4dd\]	.
.	.	.	.	.	.	.	4cc\	.
.	.	2c\	.	.	.	.	1cc	.
.	.	1d	.	.	.	.	.	.
.	.	.	.	.	.	.	2bni\	.
=262	=262	=262	=262	=262	=262	=262	=262	=262
2r	.	1c	.	2.c\	.	.	1cc	.
1c	.	.	.	.	.	.	.	.
.	.	.	.	4d\	.	.	.	.
.	.	1r	.	4e\	.	.	1r	.
.	.	.	.	4f\	.	.	.	.
2B-\	.	.	.	[2g\	.	.	.	.
=263	=263	=263	=263	=263	=263	=263	=263	=263
2A\	.	0r	.	4g\]	.	.	0r	.
.	.	.	.	4f\	.	.	.	.
2F\	.	.	.	1f	.	.	.	.
1G	.	.	.	.	.	.	.	.
.	.	.	.	2e\	.	.	.	.
=264	=264	=264	=264	=264	=264	=264	=264	=264
1F	.	2r	.	1f	.	.	2.f/	.
.	.	1f	.	.	.	.	.	.
.	.	.	.	.	.	.	4g/	.
1r	.	.	.	1r	.	.	4a/	.
.	.	.	.	.	.	.	4b-\	.
.	.	2e\	.	.	.	.	[2cc\	.
=265	=265	=265	=265	=265	=265	=265	=265	=265
0r	.	2d\	.	0r	.	.	4cc\]	.
.	.	.	.	.	.	.	4b-\	.
.	.	2B-\	.	.	.	.	1b-	.
.	.	1c	.	.	.	.	.	.
.	.	.	.	.	.	.	2a/	.
=266	=266	=266	=266	=266	=266	=266	=266	=266
2r	.	1B-	.	1r	.	.	1b-	.
2G\	.	.	.	.	.	.	.	.
2F\	.	1r	.	2r	.	.	1r	.
2G\	.	.	.	2g\	.	.	.	.
=267	=267	=267	=267	=267	=267	=267	=267	=267
2D\	.	0r	.	2f\	.	.	0r	.
2G\	.	.	.	2g\	.	.	.	.
2F\	.	.	.	2d\	.	.	.	.
[2G\	.	.	.	[2e\	.	.	.	.
=268	=268	=268	=268	=268	=268	=268	=268	=268
4G\]	.	0r	.	4e\]	.	.	0r	.
4F\	.	.	.	4d\	.	.	.	.
2D\	.	.	.	1d	.	.	.	.
1E	.	.	.	.	.	.	.	.
.	.	.	.	2c#i\	.	.	.	.
=269	=269	=269	=269	=269	=269	=269	=269	=269
1D	.	2r	.	1d	.	.	2.f/	.
.	.	2d\	.	.	.	.	.	.
.	.	.	.	.	.	.	4g/	.
1r	.	2c\	.	1r	.	.	2a/	.
.	.	2d\	.	.	.	.	2b-\	.
=270	=270	=270	=270	=270	=270	=270	=270	=270
0r	.	2A/	.	0r	.	.	2cc\	.
.	.	2d\	.	.	.	.	1a	.
.	.	2c\	.	.	.	.	.	.
.	.	[2d\	.	.	.	.	[2b-\	.
=271	=271	=271	=271	=271	=271	=271	=271	=271
0r	.	4d\]	.	0r	.	.	4b-\]	.
.	.	4c\	.	.	.	.	4a/	.
.	.	2A/	.	.	.	.	1a	.
.	.	1B-	.	.	.	.	.	.
.	.	.	.	.	.	.	2g/	.
=272	=272	=272	=272	=272	=272	=272	=272	=272
2r	.	1A	.	4A/	.	.	1a	.
.	.	.	.	4B-\	.	.	.	.
2A\	.	.	.	4c\	.	.	.	.
.	.	.	.	4d\	.	.	.	.
2G\	.	1r	.	2e\	.	.	1r	.
2A\	.	.	.	[2f\	.	.	.	.
=273	=273	=273	=273	=273	=273	=273	=273	=273
2F\	.	0r	.	4f\]	.	.	0r	.
.	.	.	.	4e\	.	.	.	.
2G\	.	.	.	1d	.	.	.	.
1E	.	.	.	.	.	.	.	.
.	.	.	.	2c#i\	.	.	.	.
=274	=274	=274	=274	=274	=274	=274	=274	=274
1D	.	2r	.	1d	.	.	4d/	.
.	.	.	.	.	.	.	4e/	.
.	.	2d\	.	.	.	.	4f/	.
.	.	.	.	.	.	.	4g/	.
1r	.	2c\	.	1r	.	.	2a/	.
.	.	2d\	.	.	.	.	[2b-\	.
=275	=275	=275	=275	=275	=275	=275	=275	=275
0r	.	2B-\	.	0r	.	.	4b-\]	.
.	.	.	.	.	.	.	4a/	.
.	.	2c\	.	.	.	.	1g	.
.	.	1A	.	.	.	.	.	.
.	.	.	.	.	.	.	2f#i/	.
=276	=276	=276	=276	=276	=276	=276	=276	=276
2r	.	1G	.	4G/	.	.	1g	.
.	.	.	.	4A/	.	.	.	.
2G\	.	.	.	4B-\	.	.	.	.
.	.	.	.	4c\	.	.	.	.
2F\	.	1r	.	2d\	.	.	1r	.
2G\	.	.	.	[2e\	.	.	.	.
=277	=277	=277	=277	=277	=277	=277	=277	=277
2E\	.	0r	.	4e\]	.	.	0r	.
.	.	.	.	4d\	.	.	.	.
2F\	.	.	.	1c	.	.	.	.
1D	.	.	.	.	.	.	.	.
.	.	.	.	2Bni\	.	.	.	.
=278	=278	=278	=278	=278	=278	=278	=278	=278
1C	.	2r	.	1c	.	.	4c/	.
.	.	.	.	.	.	.	4d/	.
.	.	2c\	.	.	.	.	4e/	.
.	.	.	.	.	.	.	4f/	.
1r	.	2B-\	.	1r	.	.	2g/	.
.	.	2c\	.	.	.	.	[2a/	.
=279	=279	=279	=279	=279	=279	=279	=279	=279
1r	.	2A/	.	0r	.	.	4a/]	.
.	.	.	.	.	.	.	4g/	.
.	.	2B-\	.	.	.	.	1f	.
2r	.	1G	.	.	.	.	.	.
2C/	.	.	.	.	.	.	2e/	.
=280	=280	=280	=280	=280	=280	=280	=280	=280
2.F\	.	1F	.	2r	.	.	1f	.
.	.	.	.	2c\	.	.	.	.
4E\	.	.	.	.	.	.	.	.
2F\	.	1r	.	2.f\	.	.	1r	.
2G\	.	.	.	.	.	.	.	.
.	.	.	.	4e\	.	.	.	.
=281	=281	=281	=281	=281	=281	=281	=281	=281
2A\	.	0r	.	2f\	.	.	0r	.
2B-\	.	.	.	2g\	.	.	.	.
2A\	.	.	.	2a\	.	.	.	.
[2d\	.	.	.	[2b-\	.	.	.	.
=282	=282	=282	=282	=282	=282	=282	=282	=282
2d\]	.	0r	.	4b-\]	.	.	0r	.
.	.	.	.	4a\	.	.	.	.
2c\	.	.	.	1a	.	.	.	.
1B-	.	.	.	.	.	.	.	.
.	.	.	.	2g\	.	.	.	.
=283	=283	=283	=283	=283	=283	=283	=283	=283
2.A\	.	1r	.	1a	.	.	0r	.
4G\	.	.	.	.	.	.	.	.
4F\	.	2r	.	4a\	.	.	.	.
4E\	.	.	.	4g\	.	.	.	.
2D\	.	2F/	.	4f\	.	.	.	.
.	.	.	.	4e\	.	.	.	.
=284	=284	=284	=284	=284	=284	=284	=284	=284
1.d	.	2.B-\	.	1.d	.	.	2r	.
.	.	.	.	.	.	.	2f/	.
.	.	4A/	.	.	.	.	.	.
.	.	2B-\	.	.	.	.	2.b-\	.
2c\	.	2c\	.	2e\	.	.	.	.
.	.	.	.	.	.	.	4a/	.
=285	=285	=285	=285	=285	=285	=285	=285	=285
2B-\	.	2d\	.	2f\	.	.	2b-\	.
2A\	.	2e\	.	2c\	.	.	2cc\	.
2d\	.	2d\	.	2f\	.	.	2dd\	.
2c\	.	[2g\	.	2e\	.	.	[2ee\	.
=286	=286	=286	=286	=286	=286	=286	=286	=286
1B-	.	4g\]	.	1g	.	.	4ee\]	.
.	.	4f\	.	.	.	.	4dd\	.
.	.	2d\	.	.	.	.	1dd	.
1A	.	1e	.	1a	.	.	.	.
.	.	.	.	.	.	.	2cc#i\	.
=287	=287	=287	=287	=287	=287	=287	=287	=287
1D	.	0d	.	2.f\	.	.	0dd	.
.	.	.	.	4d\	.	.	.	.
2r	.	.	.	1d	.	.	.	.
2G\	.	.	.	.	.	.	.	.
=288	=288	=288	=288	=288	=288	=288	=288	=288
2F\	.	0r	.	2r	.	.	0r	.
2G\	.	.	.	2d\	.	.	.	.
2A\	.	.	.	2c\	.	.	.	.
2B-\	.	.	.	2d\	.	.	.	.
=289	=289	=289	=289	=289	=289	=289	=289	=289
2c\	.	0r	.	2e\	.	.	1r	.
2A\	.	.	.	2f\	.	.	.	.
1G	.	.	.	2g\	.	.	2r	.
.	.	.	.	2e\	.	.	2g/	.
=290	=290	=290	=290	=290	=290	=290	=290	=290
1r	.	2r	.	0d	.	.	2f/	.
.	.	2G/	.	.	.	.	2g/	.
2r	.	2F/	.	.	.	.	2a/	.
2G\	.	2G/	.	.	.	.	2b-\	.
=291	=291	=291	=291	=291	=291	=291	=291	=291
2F\	.	2A/	.	2r	.	.	2.cc\	.
2G\	.	2B-\	.	2g\	.	.	.	.
.	.	.	.	.	.	.	4b-\	.
2A\	.	2.c\	.	2e\	.	.	4a/	.
.	.	.	.	.	.	.	4g/	.
2F\	.	.	.	2f\	.	.	[2a/	.
.	.	4B-\	.	.	.	.	.	.
=292	=292	=292	=292	=292	=292	=292	=292	=292
1G	.	2G/	.	2e\	.	.	2a/]	.
.	.	2B-\	.	2.d\	.	.	1g	.
1D	.	1A	.	.	.	.	.	.
.	.	.	.	4c\	.	.	.	.
.	.	.	.	2A/	.	.	2f#i/	.
=293	=293	=293	=293	=293	=293	=293	=293	=293
[0Gl	.	[0Gl	.	2B-\	.	.	[0gl	.
.	.	.	.	2G/	.	.	.	.
.	.	.	.	1e-i	.	.	.	.
=294	=294	=294	=294	=294	=294	=294	=294	=294
0G]	.	0G]	.	0dl	.	.	0g]	.
!!LO:LB:i:g=z
=295||	=295||	=295||	=295||	=295||	=295||	=295||	=295||	=295||
*>E	*	*>E	*	*>E	*	*	*>E	*
!!section: Quinta pars: Mente tota tibi supplicamus
!!!OMD: Quinta pars: Mente tota tibi supplicamus
*M2/1	*	*M2/1	*	*M2/1	*	*	*M2/1	*
*met(C|)	*	*met(C|)	*	*met(C|)	*	*	*met(C|)	*
0r	.	0r	.	0g	.	.	0r	.
=296	=296	=296	=296	=296	=296	=296	=296	=296
0r	.	0r	.	1g	.	.	0r	.
.	.	.	.	1f	.	.	.	.
=297	=297	=297	=297	=297	=297	=297	=297	=297
0G	.	0r	.	0g	.	.	0r	.
=298	=298	=298	=298	=298	=298	=298	=298	=298
1G	.	0r	.	1g	.	.	0r	.
1F	.	.	.	1a	.	.	.	.
=299	=299	=299	=299	=299	=299	=299	=299	=299
0G	.	0r	.	1.b-	.	.	0dd	.
.	.	.	.	2a\	.	.	.	.
=300	=300	=300	=300	=300	=300	=300	=300	=300
1G	.	0r	.	2g\	.	.	1dd	.
.	.	.	.	2f\	.	.	.	.
1A	.	.	.	1e	.	.	1cc	.
=301	=301	=301	=301	=301	=301	=301	=301	=301
1.B-	.	0d	.	1.d	.	.	0dd	.
2A\	.	.	.	2c\	.	.	.	.
=302	=302	=302	=302	=302	=302	=302	=302	=302
2G\	.	1d	.	2B-\	.	.	1dd	.
2F\	.	.	.	2A/	.	.	.	.
1E	.	1c	.	1G	.	.	1ee	.
=303	=303	=303	=303	=303	=303	=303	=303	=303
0D	.	0d	.	0A	.	.	1.ff	.
.	.	.	.	.	.	.	2ee\	.
=304	=304	=304	=304	=304	=304	=304	=304	=304
0G	.	1d	.	0B-	.	.	2dd\	.
.	.	.	.	.	.	.	2cc\	.
.	.	1e	.	.	.	.	1b-	.
=305	=305	=305	=305	=305	=305	=305	=305	=305
0F	.	1.f	.	1c	.	.	2.a/	.
.	.	.	.	.	.	.	4g/	.
.	.	.	.	1A	.	.	4a/	.
.	.	.	.	.	.	.	4b-\	.
.	.	2e\	.	.	.	.	2cc\	.
=306	=306	=306	=306	=306	=306	=306	=306	=306
0G	.	2d\	.	2B-\	.	.	2b-\	.
.	.	2c\	.	2c\	.	.	1a	.
.	.	1B-	.	2d\	.	.	.	.
.	.	.	.	2e\	.	.	2g/	.
=307	=307	=307	=307	=307	=307	=307	=307	=307
1r	.	[0A	.	1.f	.	.	0a	.
[1D	.	.	.	.	.	.	.	.
.	.	.	.	4e\	.	.	.	.
.	.	.	.	4d\	.	.	.	.
=308	=308	=308	=308	=308	=308	=308	=308	=308
2D\]	.	0A]	.	2.f\	.	.	1r	.
2E\	.	.	.	.	.	.	.	.
.	.	.	.	4e\	.	.	.	.
1F	.	.	.	1c	.	.	1a	.
=309	=309	=309	=309	=309	=309	=309	=309	=309
1G	.	1r	.	2.B-\	.	.	1b-	.
.	.	.	.	8A/L	.	.	.	.
.	.	.	.	8G/J	.	.	.	.
1D	.	1A	.	1d	.	.	1a	.
=310	=310	=310	=310	=310	=310	=310	=310	=310
0r	.	1B-	.	0r	.	.	2f/	.
.	.	.	.	.	.	.	2g/	.
.	.	1A	.	.	.	.	2a/	.
.	.	.	.	.	.	.	2b-\	.
=311	=311	=311	=311	=311	=311	=311	=311	=311
0r	.	2r	.	0r	.	.	2.cc\	.
.	.	1A	.	.	.	.	.	.
.	.	.	.	.	.	.	4b-\	.
.	.	.	.	.	.	.	4a/	.
.	.	.	.	.	.	.	4g/	.
.	.	2G/	.	.	.	.	[2b-\	.
=312	=312	=312	=312	=312	=312	=312	=312	=312
0r	.	1A	.	1r	.	.	4b-\]	.
.	.	.	.	.	.	.	4a/	.
.	.	.	.	.	.	.	1a	.
.	.	1B-	.	1d	.	.	.	.
.	.	.	.	.	.	.	2g/	.
=313	=313	=313	=313	=313	=313	=313	=313	=313
1r	.	0A	.	1e	.	.	0a	.
1D	.	.	.	1d	.	.	.	.
=314	=314	=314	=314	=314	=314	=314	=314	=314
1E	.	0r	.	2Bni\	.	.	0r	.
.	.	.	.	2c\	.	.	.	.
1D	.	.	.	2d\	.	.	.	.
.	.	.	.	2e\	.	.	.	.
=315	=315	=315	=315	=315	=315	=315	=315	=315
2r	.	0r	.	2.f\	.	.	0r	.
1D	.	.	.	.	.	.	.	.
.	.	.	.	4e\	.	.	.	.
.	.	.	.	4d\	.	.	.	.
.	.	.	.	4c\	.	.	.	.
2C/	.	.	.	[2e\	.	.	.	.
=316	=316	=316	=316	=316	=316	=316	=316	=316
1D	.	2r	.	4e\]	.	.	0r	.
.	.	.	.	4d\	.	.	.	.
.	.	1A	.	1d	.	.	.	.
1E	.	.	.	.	.	.	.	.
.	.	2G/	.	2c#i\	.	.	.	.
=317	=317	=317	=317	=317	=317	=317	=317	=317
1D	.	1A	.	1d	.	.	2r	.
.	.	.	.	.	.	.	1a	.
2r	.	1B-	.	2r	.	.	.	.
[2G\	.	.	.	2d\	.	.	2g/	.
=318	=318	=318	=318	=318	=318	=318	=318	=318
2G\]	.	1A	.	2e\	.	.	1a	.
2F\	.	.	.	2f\	.	.	.	.
1G	.	2r	.	4e\	.	.	1b-	.
.	.	.	.	4d\	.	.	.	.
.	.	[2d\	.	[2g\	.	.	.	.
=319	=319	=319	=319	=319	=319	=319	=319	=319
1A	.	2d\]	.	2g\]	.	.	2a/	.
.	.	2c\	.	2f\	.	.	1cc	.
1G	.	1d	.	1g	.	.	.	.
.	.	.	.	.	.	.	2bni\	.
=320	=320	=320	=320	=320	=320	=320	=320	=320
2r	.	1e	.	1c	.	.	1cc	.
1c	.	.	.	.	.	.	.	.
.	.	1d	.	1r	.	.	1dd	.
2B-\	.	.	.	.	.	.	.	.
=321	=321	=321	=321	=321	=321	=321	=321	=321
2c\	.	2r	.	1r	.	.	1g	.
2G\	.	1g	.	.	.	.	.	.
1A	.	.	.	1c	.	.	1r	.
.	.	2f\	.	.	.	.	.	.
=322	=322	=322	=322	=322	=322	=322	=322	=322
2G\	.	2g\	.	1d	.	.	2r	.
1B-	.	2d\	.	.	.	.	1dd	.
.	.	1e	.	1r	.	.	.	.
2A\	.	.	.	.	.	.	2cc\	.
=323	=323	=323	=323	=323	=323	=323	=323	=323
2B-\	.	2d\	.	1r	.	.	2dd\	.
2F\	.	1f	.	.	.	.	2a/	.
1G	.	.	.	1B-	.	.	1b-	.
.	.	2e\	.	.	.	.	.	.
=324	=324	=324	=324	=324	=324	=324	=324	=324
0F	.	2f\	.	2c\	.	.	0a	.
.	.	2d\	.	2.f\	.	.	.	.
.	.	1c	.	.	.	.	.	.
.	.	.	.	4e\	.	.	.	.
.	.	.	.	2f\	.	.	.	.
=325	=325	=325	=325	=325	=325	=325	=325	=325
2r	.	2.B-\	.	4d\	.	.	2r	.
.	.	.	.	4c\	.	.	.	.
1G	.	.	.	4B-\	.	.	1b-	.
.	.	8A/L	.	4A/	.	.	.	.
.	.	8G/J	.	.	.	.	.	.
.	.	1d	.	2G/	.	.	.	.
2F\	.	.	.	2A/	.	.	2a/	.
=326	=326	=326	=326	=326	=326	=326	=326	=326
2G\	.	2r	.	2G/	.	.	2b-\	.
2D\	.	1d	.	1A	.	.	2f/	.
1E	.	.	.	.	.	.	1g	.
.	.	2c\	.	2G/	.	.	.	.
=327	=327	=327	=327	=327	=327	=327	=327	=327
[0D	.	2d\	.	1A	.	.	0f	.
.	.	2A/	.	.	.	.	.	.
.	.	1B-	.	[1d	.	.	.	.
=328	=328	=328	=328	=328	=328	=328	=328	=328
0D]	.	0A	.	2d\]	.	.	1r	.
.	.	.	.	2e\	.	.	.	.
.	.	.	.	2f\	.	.	1f	.
.	.	.	.	2d\	.	.	.	.
=329	=329	=329	=329	=329	=329	=329	=329	=329
0r	.	0r	.	2e\	.	.	2g/	.
.	.	.	.	2g\	.	.	2b-\	.
.	.	.	.	2f\	.	.	2a/	.
.	.	.	.	[2a\	.	.	[2cc\	.
=330	=330	=330	=330	=330	=330	=330	=330	=330
1r	.	0r	.	4a\]	.	.	4cc\]	.
.	.	.	.	4g\	.	.	4b-\	.
.	.	.	.	1g	.	.	4a/	.
.	.	.	.	.	.	.	4g/	.
2r	.	.	.	.	.	.	1a	.
2D\	.	.	.	2f\	.	.	.	.
=331	=331	=331	=331	=331	=331	=331	=331	=331
2E\	.	0r	.	2g\	.	.	1g	.
2C/	.	.	.	2.e\	.	.	.	.
2D\	.	.	.	.	.	.	1r	.
.	.	.	.	4d\	.	.	.	.
2F\	.	.	.	[2d\	.	.	.	.
=332	=332	=332	=332	=332	=332	=332	=332	=332
1E	.	2r	.	2d\]	.	.	2r	.
.	.	2G/	.	2c#i\	.	.	2g/	.
1D	.	2A/	.	1d	.	.	2f/	.
.	.	2F/	.	.	.	.	[2a/	.
=333	=333	=333	=333	=333	=333	=333	=333	=333
1r	.	2G/	.	0r	.	.	4a/]	.
.	.	.	.	.	.	.	4g/	.
.	.	2B-\	.	.	.	.	1g	.
2r	.	1A	.	.	.	.	.	.
2A\	.	.	.	.	.	.	2f#i/	.
=334	=334	=334	=334	=334	=334	=334	=334	=334
2B-\	.	1G	.	2r	.	.	1g	.
2c\	.	.	.	2g\	.	.	.	.
2.d\	.	1r	.	2f\	.	.	1r	.
.	.	.	.	[2b-\	.	.	.	.
4c\	.	.	.	.	.	.	.	.
=335	=335	=335	=335	=335	=335	=335	=335	=335
2A\	.	1r	.	4b-\]	.	.	0r	.
.	.	.	.	4a\	.	.	.	.
2c\	.	.	.	1a	.	.	.	.
1B-	.	2r	.	.	.	.	.	.
.	.	2d\	.	2g\	.	.	.	.
=336	=336	=336	=336	=336	=336	=336	=336	=336
1A	.	2e\	.	1a	.	.	2r	.
.	.	2f\	.	.	.	.	2cc\	.
1r	.	2.g\	.	1r	.	.	2b-\	.
.	.	.	.	.	.	.	[2ee-\	.
.	.	4f\	.	.	.	.	.	.
=337	=337	=337	=337	=337	=337	=337	=337	=337
1r	.	2d\	.	1r	.	.	4ee-\]	.
.	.	.	.	.	.	.	4dd\	.
.	.	2f\	.	.	.	.	1dd	.
1A	.	1e	.	1a	.	.	.	.
.	.	.	.	.	.	.	2cc\	.
=338	=338	=338	=338	=338	=338	=338	=338	=338
1B-	.	1d	.	1f	.	.	1dd	.
1G	.	2r	.	1g	.	.	2r	.
.	.	[2g\	.	.	.	.	2b-\	.
=339	=339	=339	=339	=339	=339	=339	=339	=339
1A	.	2g\]	.	2r	.	.	1cc	.
.	.	2f\	.	2c\	.	.	.	.
2G\	.	2g\	.	2d\	.	.	2b-\	.
[2A\	.	[2e\	.	2c\	.	.	[2cc\	.
=340	=340	=340	=340	=340	=340	=340	=340	=340
2A\]	.	2e\]	.	1A	.	.	2cc\]	.
2F\	.	1f	.	.	.	.	2a/	.
1G	.	.	.	2r	.	.	2.b-\	.
.	.	2e\	.	2B-\	.	.	.	.
.	.	.	.	.	.	.	4cc\	.
=341	=341	=341	=341	=341	=341	=341	=341	=341
2F\	.	2f\	.	2c\	.	.	2a/	.
1B-	.	1d	.	2B-\	.	.	1dd	.
.	.	.	.	2G/	.	.	.	.
2G\	.	[2e-\	.	2b-\	.	.	2b-\	.
=342	=342	=342	=342	=342	=342	=342	=342	=342
2A\	.	2e-\]	.	2a\	.	.	2cc\	.
2B-\	.	2d\	.	2f\	.	.	2dd\	.
2G\	.	2e-i\	.	2g\	.	.	2b-\	.
[2A\	.	[2c\	.	[2e\	.	.	[2cc\	.
=343	=343	=343	=343	=343	=343	=343	=343	=343
2A\]	.	2c\]	.	4e\]	.	.	2cc\]	.
.	.	.	.	4f\	.	.	.	.
2F\	.	1d	.	2a\	.	.	2a/	.
2G\	.	.	.	2g\	.	.	2b-\	.
2A\	.	2c\	.	2e\	.	.	2cc\	.
=344	=344	=344	=344	=344	=344	=344	=344	=344
2D\	.	2d\	.	2f\	.	.	2a/	.
1G	.	1B-	.	2.d\	.	.	1b-	.
.	.	.	.	4e\	.	.	.	.
2E\	.	[2c\	.	2g\	.	.	2g/	.
=345	=345	=345	=345	=345	=345	=345	=345	=345
2F\	.	2c\]	.	2f\	.	.	2a/	.
2G\	.	2B-\	.	2d\	.	.	2b-\	.
2C/	.	2c\	.	2e\	.	.	2g/	.
[2F\	.	[2A/	.	[2c\	.	.	[2a/	.
=346	=346	=346	=346	=346	=346	=346	=346	=346
2F\]	.	2A/]	.	4c\]	.	.	2a/]	.
.	.	.	.	4d\	.	.	.	.
2D\	.	1B-	.	2f\	.	.	2f/	.
2E\	.	.	.	2e\	.	.	2g/	.
2F\	.	2A/	.	[2d\	.	.	2a/	.
=347	=347	=347	=347	=347	=347	=347	=347	=347
2G\	.	2B-\	.	2d\]	.	.	2d/	.
2E-\	.	2G/	.	2c\	.	.	1g	.
1D	.	1A	.	1d	.	.	.	.
.	.	.	.	.	.	.	2f#i/	.
=348	=348	=348	=348	=348	=348	=348	=348	=348
1d	.	[0G	.	2.B-\	.	.	0g	.
.	.	.	.	4c\	.	.	.	.
2.B-\	.	.	.	2d\	.	.	.	.
.	.	.	.	2e-i\	.	.	.	.
4c\	.	.	.	.	.	.	.	.
=349	=349	=349	=349	=349	=349	=349	=349	=349
2d\	.	0G]	.	2d\	.	.	1r	.
2e-i\	.	.	.	2.g\	.	.	.	.
1d	.	.	.	.	.	.	1g	.
.	.	.	.	4a\	.	.	.	.
.	.	.	.	[2b-\	.	.	.	.
=350	=350	=350	=350	=350	=350	=350	=350	=350
1G	.	0r	.	4b-\]	.	.	1b-	.
.	.	.	.	4a\	.	.	.	.
.	.	.	.	4g\	.	.	.	.
.	.	.	.	4f\	.	.	.	.
1A	.	.	.	1e	.	.	1cc	.
=351	=351	=351	=351	=351	=351	=351	=351	=351
2D\	.	1r	.	0d	.	.	0dd	.
2.G\	.	.	.	.	.	.	.	.
.	.	1G	.	.	.	.	.	.
4A\	.	.	.	.	.	.	.	.
[2B-\	.	.	.	.	.	.	.	.
=352	=352	=352	=352	=352	=352	=352	=352	=352
4B-\]	.	1B-	.	0G	.	.	0r	.
4A\	.	.	.	.	.	.	.	.
4G\	.	.	.	.	.	.	.	.
4F\	.	.	.	.	.	.	.	.
1E	.	1c	.	.	.	.	.	.
=353	=353	=353	=353	=353	=353	=353	=353	=353
[0D	.	0d	.	0A	.	.	1r	.
.	.	.	.	.	.	.	1dd	.
=354	=354	=354	=354	=354	=354	=354	=354	=354
0D]	.	0r	.	1r	.	.	1.ff	.
.	.	.	.	1d	.	.	.	.
.	.	.	.	.	.	.	2ee\	.
=355	=355	=355	=355	=355	=355	=355	=355	=355
0r	.	0r	.	2.f\	.	.	1dd	.
.	.	.	.	4g\	.	.	.	.
.	.	.	.	2a\	.	.	2cc\	.
.	.	.	.	[2b-\	.	.	[2dd\	.
=356	=356	=356	=356	=356	=356	=356	=356	=356
1r	.	1r	.	4b-\]	.	.	4dd\]	.
.	.	.	.	4a\	.	.	4cc\	.
.	.	.	.	1a	.	.	2a/	.
1G	.	1d	.	.	.	.	1b-	.
.	.	.	.	2g\	.	.	.	.
=357	=357	=357	=357	=357	=357	=357	=357	=357
2.F\	.	1.f	.	0a	.	.	1a	.
4E\	.	.	.	.	.	.	.	.
2D\	.	.	.	.	.	.	[1f	.
2C/	.	2e\	.	.	.	.	.	.
=358	=358	=358	=358	=358	=358	=358	=358	=358
2BB-/	.	1d	.	0r	.	.	2f/]	.
2B-\	.	.	.	.	.	.	2g/	.
2A\	.	2c\	.	.	.	.	2a/	.
[2G\	.	[2d\	.	.	.	.	[2b-\	.
=359	=359	=359	=359	=359	=359	=359	=359	=359
2G\]	.	4d\]	.	1r	.	.	4b-\]	.
.	.	4c\	.	.	.	.	4a/	.
2F\	.	2A/	.	.	.	.	1a	.
1G	.	1B-	.	[1d	.	.	.	.
.	.	.	.	.	.	.	2g/	.
=360	=360	=360	=360	=360	=360	=360	=360	=360
[0D	.	[0A	.	2d\]	.	.	1.a	.
.	.	.	.	2.f\	.	.	.	.
.	.	.	.	4e\	.	.	.	.
.	.	.	.	[2d\	.	.	4g/	.
.	.	.	.	.	.	.	4f/	.
=361	=361	=361	=361	=361	=361	=361	=361	=361
0D]	.	0A]	.	2d\]	.	.	0f	.
.	.	.	.	4c\	.	.	.	.
.	.	.	.	4B-\	.	.	.	.
.	.	.	.	1A	.	.	.	.
=362	=362	=362	=362	=362	=362	=362	=362	=362
0r	.	0r	.	3%2B-V	.	.	3%2gV	.
.	.	.	.	3%2B-	.	.	3%2g	.
.	.	.	.	3%2B-Z	.	.	3%2gZ	.
=363	=363	=363	=363	=363	=363	=363	=363	=363
0r	.	0r	.	3%2.AV	.	.	3%4aV	.
.	.	.	.	3B-\	.	.	.	.
.	.	.	.	3%2cZ	.	.	3%2gZ	.
=364	=364	=364	=364	=364	=364	=364	=364	=364
0r	.	0r	.	3%4dV	.	.	3%2fV	.
.	.	.	.	.	.	.	3%2d	.
.	.	.	.	3%2c#iZ	.	.	3%2eZ	.
=365	=365	=365	=365	=365	=365	=365	=365	=365
0r	.	0r	.	3%4dV	.	.	3%4dV	.
.	.	.	.	3%2rZ	.	.	3%2rZ	.
=366	=366	=366	=366	=366	=366	=366	=366	=366
3%4GV	.	3%4dV	.	3%4gV	.	.	3%4b-V	.
3%2GZ	.	3%2dZ	.	3%2gZ	.	.	3%2b-Z	.
=367	=367	=367	=367	=367	=367	=367	=367	=367
3%4AV	.	3%4cV	.	3%2.eV	.	.	3%2ccV	.
.	.	.	.	.	.	.	3%2a	.
.	.	.	.	3f\	.	.	.	.
3%2GZ	.	3%2dZ	.	3%2gZ	.	.	3%2b-Z	.
=368	=368	=368	=368	=368	=368	=368	=368	=368
3%2FV	.	3%2AV	.	3%2cV	.	.	3%2aV	.
3%2D	.	3%2B-	.	3%2d	.	.	3%2f	.
3%2EZ	.	3%2GZ	.	3%2cZ	.	.	3%2gZ	.
=369	=369	=369	=369	=369	=369	=369	=369	=369
3%4DV	.	3%4AV	.	3%4dV	.	.	3%4fV	.
3%2rZ	.	3%2rZ	.	3%2rZ	.	.	3%2rZ	.
=370	=370	=370	=370	=370	=370	=370	=370	=370
0r	.	0r	.	3%4gV	.	.	3%4ddV	.
.	.	.	.	3%2gZ	.	.	3%2eeZ	.
=371	=371	=371	=371	=371	=371	=371	=371	=371
0r	.	0r	.	3%4aV	.	.	3%2ffV	.
.	.	.	.	.	.	.	3%2.ee	.
.	.	.	.	3%2gZ	.	.	.	.
.	.	.	.	.	.	.	3dd\Z	.
=372	=372	=372	=372	=372	=372	=372	=372	=372
0r	.	0r	.	3%2fV	.	.	3%4ddV	.
.	.	.	.	3%2d	.	.	.	.
.	.	.	.	3%2eZ	.	.	3%2cc#iZ	.
=373	=373	=373	=373	=373	=373	=373	=373	=373
0r	.	0r	.	3%4dV	.	.	3%4ddV	.
.	.	.	.	3%2rZ	.	.	3%2rZ	.
=374	=374	=374	=374	=374	=374	=374	=374	=374
3%2GV	.	3%2dV	.	3%2gV	.	.	3%2b-V	.
3%2G	.	3%2d	.	3%2g	.	.	3%2b-	.
3%2GZ	.	3%2dZ	.	3%2gZ	.	.	3%2b-Z	.
=375	=375	=375	=375	=375	=375	=375	=375	=375
3%2AV	.	3%2cV	.	3%2eV	.	.	3%4ccV	.
3%2F	.	3%2A	.	3%2f	.	.	.	.
3%2GZ	.	3%2B-Z	.	3%2dZ	.	.	3%2b-Z	.
=376	=376	=376	=376	=376	=376	=376	=376	=376
3%2CV	.	3%4cV	.	3%2cV	.	.	3%2gV	.
3%2F	.	.	.	3%2A	.	.	3%2.a	.
3%2GZ	.	3%2B-Z	.	3%2B-Z	.	.	.	.
.	.	.	.	.	.	.	3g/Z	.
=377	=377	=377	=377	=377	=377	=377	=377	=377
3%2EV	.	3%2GV	.	3%2cV	.	.	3%4gV	.
3%4DZ	.	3%4AZ	.	3%4dZ	.	.	.	.
.	.	.	.	.	.	.	3%2f#iZ	.
=378	=378	=378	=378	=378	=378	=378	=378	=378
1.d	.	[0G	.	1.B-	.	.	0g	.
[2B-\	.	.	.	2G/	.	.	.	.
=379	=379	=379	=379	=379	=379	=379	=379	=379
2B-\]	.	0G]	.	1G	.	.	0r	.
2G\	.	.	.	.	.	.	.	.
1G	.	.	.	1r	.	.	.	.
=380	=380	=380	=380	=380	=380	=380	=380	=380
0r	.	0r	.	1g	.	.	1b-	.
.	.	.	.	2g\	.	.	2b-\	.
.	.	.	.	2g\	.	.	2b-\	.
=381	=381	=381	=381	=381	=381	=381	=381	=381
0r	.	0r	.	1a	.	.	1cc	.
.	.	.	.	1f	.	.	1a	.
=382	=382	=382	=382	=382	=382	=382	=382	=382
1F	.	1A	.	0r	.	.	0r	.
2E\	.	2G/	.	.	.	.	.	.
2F\	.	2A/	.	.	.	.	.	.
=383	=383	=383	=383	=383	=383	=383	=383	=383
1G	.	1B-	.	0r	.	.	0r	.
1G	.	1B-	.	.	.	.	.	.
=384	=384	=384	=384	=384	=384	=384	=384	=384
0r	.	0r	.	2.g\	.	.	2.b-\	.
.	.	.	.	4g\	.	.	4b-\	.
.	.	.	.	2g\	.	.	2b-\	.
.	.	.	.	2b-\	.	.	2dd\	.
=385	=385	=385	=385	=385	=385	=385	=385	=385
0r	.	0r	.	2a\	.	.	2cc\	.
.	.	.	.	2g\	.	.	2b-\	.
.	.	.	.	1f	.	.	1a	.
=386	=386	=386	=386	=386	=386	=386	=386	=386
1F	.	1A	.	0r	.	.	0r	.
2E\	.	2G/	.	.	.	.	.	.
2F\	.	2A/	.	.	.	.	.	.
=387	=387	=387	=387	=387	=387	=387	=387	=387
1G	.	1B-	.	0r	.	.	0r	.
1G	.	1B-	.	.	.	.	.	.
=388	=388	=388	=388	=388	=388	=388	=388	=388
0r	.	0r	.	3%2gV	.	.	3%2b-V	.
.	.	.	.	3%2g	.	.	3%2b-	.
.	.	.	.	3%2gZ	.	.	3%2b-Z	.
=389	=389	=389	=389	=389	=389	=389	=389	=389
0r	.	0r	.	3%2fV	.	.	3%2aV	.
.	.	.	.	3%2g	.	.	3%2b-	.
.	.	.	.	3%2eZ	.	.	3%2ccZ	.
=390	=390	=390	=390	=390	=390	=390	=390	=390
0r	.	0r	.	3%2.dV	.	.	3%2.ddV	.
.	.	.	.	3e\	.	.	3cc\	.
.	.	.	.	3%2fZ	.	.	3%2aZ	.
=391	=391	=391	=391	=391	=391	=391	=391	=391
3%2GV	.	3%2dV	.	3%2gV	.	.	3%2b-V	.
3%2B-	.	3%2d	.	3%2f	.	.	3%2b-	.
3%2FZ	.	3%2cZ	.	3%2fZ	.	.	3%2aZ	.
=392	=392	=392	=392	=392	=392	=392	=392	=392
3%2GV	.	3%2B-V	.	3%2dV	.	.	3%2gV	.
3%2.F	.	3%2.c	.	3%2.f	.	.	3%2.a	.
3G\Z	.	3B-\Z	.	3e\Z	.	.	3g/Z	.
=393	=393	=393	=393	=393	=393	=393	=393	=393
3%2EV	.	3%2GV	.	3%2cV	.	.	3%4gV	.
3%4DZ	.	3%4AZ	.	3%4dZ	.	.	.	.
.	.	.	.	.	.	.	3%2f#iZ	.
=394	=394	=394	=394	=394	=394	=394	=394	=394
0Gl	.	0Gl	.	0dl	.	.	0gl	.
!!LO:LB:i:g=z
=395||	=395||	=395||	=395||	=395||	=395||	=395||	=395||	=395||
*>F	*	*>F	*	*>F	*	*	*>F	*
!!section: Sexta pars: Ora pro nobis
!!!OMD: Sexta pars: Ora pro nobis
*M2/1	*	*M2/1	*	*M2/1	*	*	*M2/1	*
*met(C|)	*	*met(C|)	*	*met(C|)	*	*	*met(C|)	*
0G	.	0r	.	0r	.	.	0r	.
=396	=396	=396	=396	=396	=396	=396	=396	=396
1F	.	0r	.	0r	.	.	0r	.
1F	.	.	.	.	.	.	.	.
=397	=397	=397	=397	=397	=397	=397	=397	=397
0B-	.	0G	.	0r	.	.	0r	.
=398	=398	=398	=398	=398	=398	=398	=398	=398
1A	.	1F	.	0r	.	.	0r	.
[1D	.	1F	.	.	.	.	.	.
=399	=399	=399	=399	=399	=399	=399	=399	=399
2D\]	.	0B-	.	0r	.	.	0r	.
4E\	.	.	.	.	.	.	.	.
4F\	.	.	.	.	.	.	.	.
1G	.	.	.	.	.	.	.	.
=400	=400	=400	=400	=400	=400	=400	=400	=400
1.F	.	0A	.	0r	.	.	0r	.
[2D\	.	.	.	.	.	.	.	.
=401	=401	=401	=401	=401	=401	=401	=401	=401
2D\]	.	1r	.	0r	.	.	0r	.
4C/	.	.	.	.	.	.	.	.
4BB-/	.	.	.	.	.	.	.	.
2BB-/	.	[1d	.	.	.	.	.	.
2F\	.	.	.	.	.	.	.	.
=402	=402	=402	=402	=402	=402	=402	=402	=402
2G\	.	1d]	.	0r	.	.	0r	.
1B-	.	.	.	.	.	.	.	.
.	.	1c	.	.	.	.	.	.
2A\	.	.	.	.	.	.	.	.
=403	=403	=403	=403	=403	=403	=403	=403	=403
2B-\	.	1.B-	.	0r	.	.	0r	.
1G	.	.	.	.	.	.	.	.
4F\	.	4A/	.	.	.	.	.	.
4E\	.	4G/	.	.	.	.	.	.
=404	=404	=404	=404	=404	=404	=404	=404	=404
2D\	.	1B-	.	0r	.	.	0r	.
1G	.	.	.	.	.	.	.	.
.	.	[1A	.	.	.	.	.	.
2F\	.	.	.	.	.	.	.	.
=405	=405	=405	=405	=405	=405	=405	=405	=405
1G	.	2A/]	.	0r	.	.	0r	.
.	.	2G/	.	.	.	.	.	.
1B-	.	[1G	.	.	.	.	.	.
=406	=406	=406	=406	=406	=406	=406	=406	=406
0A	.	1G]	.	0r	.	.	0r	.
.	.	1F	.	.	.	.	.	.
=407	=407	=407	=407	=407	=407	=407	=407	=407
0G	.	1G	.	0g	.	.	0r	.
.	.	1B-	.	.	.	.	.	.
=408	=408	=408	=408	=408	=408	=408	=408	=408
0D	.	0A	.	1f	.	.	0r	.
.	.	.	.	1f	.	.	.	.
=409	=409	=409	=409	=409	=409	=409	=409	=409
0r	.	0r	.	0b-	.	.	0g	.
=410	=410	=410	=410	=410	=410	=410	=410	=410
0r	.	0r	.	1a	.	.	1f	.
.	.	.	.	[1d	.	.	1f	.
=411	=411	=411	=411	=411	=411	=411	=411	=411
0G	.	1r	.	2d\]	.	.	0b-	.
.	.	.	.	4e\	.	.	.	.
.	.	.	.	4f\	.	.	.	.
.	.	[1d	.	1g	.	.	.	.
=412	=412	=412	=412	=412	=412	=412	=412	=412
1D	.	1d]	.	1.f	.	.	0a	.
1F	.	1c	.	.	.	.	.	.
.	.	.	.	2e\	.	.	.	.
=413	=413	=413	=413	=413	=413	=413	=413	=413
2.G\	.	1.B-	.	2d\	.	.	1r	.
.	.	.	.	2c\	.	.	.	.
4A\	.	.	.	.	.	.	.	.
1B-	.	.	.	1B-	.	.	[1dd	.
.	.	4A/	.	.	.	.	.	.
.	.	4G/	.	.	.	.	.	.
=414	=414	=414	=414	=414	=414	=414	=414	=414
1BB-	.	1B-	.	1.f	.	.	1dd]	.
1F	.	1A	.	.	.	.	1cc	.
.	.	.	.	2e\	.	.	.	.
=415	=415	=415	=415	=415	=415	=415	=415	=415
2.G\	.	1r	.	0d	.	.	1.b-	.
4A\	.	.	.	.	.	.	.	.
[1B-	.	[1d	.	.	.	.	.	.
.	.	.	.	.	.	.	4a/	.
.	.	.	.	.	.	.	4g/	.
=416	=416	=416	=416	=416	=416	=416	=416	=416
1B-]	.	1d]	.	1B-	.	.	1b-	.
1F	.	1c	.	1c	.	.	[1a	.
=417	=417	=417	=417	=417	=417	=417	=417	=417
1G	.	1B-	.	1B-	.	.	2a/]	.
.	.	.	.	.	.	.	2g/	.
1E	.	1G	.	1c	.	.	[1g	.
=418	=418	=418	=418	=418	=418	=418	=418	=418
0D	.	0A	.	0d	.	.	1g]	.
.	.	.	.	.	.	.	1f#i	.
=419	=419	=419	=419	=419	=419	=419	=419	=419
0E-i	.	1G	.	1B-	.	.	0g	.
.	.	[1B-	.	1G	.	.	.	.
=420	=420	=420	=420	=420	=420	=420	=420	=420
0D	.	1B-]	.	0r	.	.	0r	.
.	.	1A	.	.	.	.	.	.
=421	=421	=421	=421	=421	=421	=421	=421	=421
0E-i	.	0G	.	0r	.	.	0r	.
=422	=422	=422	=422	=422	=422	=422	=422	=422
1D	.	1F	.	0r	.	.	0r	.
[1E-i	.	[1G	.	.	.	.	.	.
=423	=423	=423	=423	=423	=423	=423	=423	=423
1E-]	.	2G/]	.	0r	.	.	0r	.
.	.	2F/	.	.	.	.	.	.
1D	.	[1B-	.	.	.	.	.	.
=424	=424	=424	=424	=424	=424	=424	=424	=424
0C	.	1B-]	.	0e-	.	.	0r	.
.	.	1A	.	.	.	.	.	.
=425	=425	=425	=425	=425	=425	=425	=425	=425
0BB-	.	1.B-	.	2.d\	.	.	1r	.
.	.	.	.	4c\	.	.	.	.
.	.	.	.	2B-\	.	.	[1b-	.
.	.	2c\	.	2A/	.	.	.	.
=426	=426	=426	=426	=426	=426	=426	=426	=426
0r	.	2d\	.	1G	.	.	1b-]	.
.	.	2e\	.	.	.	.	.	.
.	.	[1f	.	1F	.	.	1a	.
=427	=427	=427	=427	=427	=427	=427	=427	=427
0r	.	1f]	.	2.c\	.	.	0g	.
.	.	.	.	4B-\	.	.	.	.
.	.	1e	.	2c\	.	.	.	.
.	.	.	.	2G/	.	.	.	.
=428	=428	=428	=428	=428	=428	=428	=428	=428
1r	.	1d	.	1B-	.	.	1f	.
[1C	.	[1e-	.	[1E-	.	.	[1g	.
=429	=429	=429	=429	=429	=429	=429	=429	=429
1C]	.	1e-]	.	1E-]	.	.	2g/]	.
.	.	.	.	.	.	.	2f/	.
1BB-	.	1d	.	[1f	.	.	[1b-	.
=430	=430	=430	=430	=430	=430	=430	=430	=430
0F	.	0c	.	1f]	.	.	1b-]	.
.	.	.	.	1f	.	.	1a	.
=431	=431	=431	=431	=431	=431	=431	=431	=431
1r	.	[0B-	.	0d	.	.	[0b-	.
1BB-	.	.	.	.	.	.	.	.
=432	=432	=432	=432	=432	=432	=432	=432	=432
1BB-	.	0B-]	.	1r	.	.	0b-]	.
1BB-	.	.	.	1B-	.	.	.	.
=433	=433	=433	=433	=433	=433	=433	=433	=433
[0E-i	.	1r	.	1B-	.	.	0r	.
.	.	1G	.	1B-	.	.	.	.
=434	=434	=434	=434	=434	=434	=434	=434	=434
1.E-]	.	1G	.	[0e-	.	.	1r	.
.	.	1G	.	.	.	.	1g	.
4D\	.	.	.	.	.	.	.	.
4C/	.	.	.	.	.	.	.	.
=435	=435	=435	=435	=435	=435	=435	=435	=435
0C	.	1.c	.	1.e-]	.	.	1g	.
.	.	.	.	.	.	.	1g	.
.	.	2B-\	.	4d\	.	.	.	.
.	.	.	.	4c\	.	.	.	.
=436	=436	=436	=436	=436	=436	=436	=436	=436
1r	.	2A/	.	0c	.	.	1.cc	.
.	.	2G/	.	.	.	.	.	.
[1F	.	1F	.	.	.	.	.	.
.	.	.	.	.	.	.	2b-\	.
=437	=437	=437	=437	=437	=437	=437	=437	=437
2F\]	.	1.f	.	1r	.	.	2a/	.
2E\	.	.	.	.	.	.	2g/	.
2D\	.	.	.	[1f	.	.	1f	.
2C/	.	2e\	.	.	.	.	.	.
=438	=438	=438	=438	=438	=438	=438	=438	=438
[0BB-	.	2d\	.	2f\]	.	.	1.ff	.
.	.	2c\	.	2e\	.	.	.	.
.	.	1B-	.	2d\	.	.	.	.
.	.	.	.	2c\	.	.	2ee\	.
=439	=439	=439	=439	=439	=439	=439	=439	=439
0BB-_	.	2.f\	.	1B-	.	.	2dd\	.
.	.	.	.	.	.	.	2cc\	.
.	.	4e\	.	.	.	.	.	.
.	.	2d\	.	[1f	.	.	2.b-\	.
.	.	2c\	.	.	.	.	.	.
.	.	.	.	.	.	.	4a/	.
=440	=440	=440	=440	=440	=440	=440	=440	=440
0BB-]	.	2.B-\	.	2f\]	.	.	1.ff	.
.	.	.	.	2e\	.	.	.	.
.	.	4A/	.	.	.	.	.	.
.	.	[1f	.	2d\	.	.	.	.
.	.	.	.	2c\	.	.	2ee\	.
=441	=441	=441	=441	=441	=441	=441	=441	=441
1.BB-	.	2f\]	.	2.B-\	.	.	2dd\	.
.	.	2e\	.	.	.	.	2cc\	.
.	.	.	.	4A/	.	.	.	.
.	.	2d\	.	2.f\	.	.	2b-\	.
2C/	.	2c\	.	.	.	.	[2a/	.
.	.	.	.	4e\	.	.	.	.
=442	=442	=442	=442	=442	=442	=442	=442	=442
2D\	.	2B-\	.	2d\	.	.	2a/]	.
2E-i\	.	2G/	.	2c\	.	.	1g	.
1D	.	1A	.	1d	.	.	.	.
.	.	.	.	.	.	.	2f#i/	.
=443	=443	=443	=443	=443	=443	=443	=443	=443
0G	.	[0G	.	0B-	.	.	[0g	.
=444	=444	=444	=444	=444	=444	=444	=444	=444
1r	.	0G]	.	1r	.	.	0g]	.
1G	.	.	.	1b-	.	.	.	.
=445	=445	=445	=445	=445	=445	=445	=445	=445
1F	.	0r	.	1a	.	.	0r	.
1G	.	.	.	1g	.	.	.	.
=446	=446	=446	=446	=446	=446	=446	=446	=446
0A	.	0r	.	1.f#i	.	.	0r	.
.	.	.	.	2e\	.	.	.	.
=447	=447	=447	=447	=447	=447	=447	=447	=447
0G	.	1r	.	0g	.	.	1r	.
.	.	1G	.	.	.	.	1b-	.
=448	=448	=448	=448	=448	=448	=448	=448	=448
0r	.	1F	.	0r	.	.	1a	.
.	.	1G	.	.	.	.	1g	.
=449	=449	=449	=449	=449	=449	=449	=449	=449
0r	.	0A	.	0r	.	.	1.f#i	.
.	.	.	.	.	.	.	2e/	.
=450	=450	=450	=450	=450	=450	=450	=450	=450
1r	.	0G	.	0r	.	.	0g	.
[1B-	.	.	.	.	.	.	.	.
=451	=451	=451	=451	=451	=451	=451	=451	=451
1B-]	.	0d	.	0r	.	.	0r	.
1B-	.	.	.	.	.	.	.	.
=452	=452	=452	=452	=452	=452	=452	=452	=452
1B-	.	1d	.	0r	.	.	0r	.
1B-	.	1d	.	.	.	.	.	.
=453	=453	=453	=453	=453	=453	=453	=453	=453
1A	.	1c	.	0r	.	.	0r	.
1G	.	1B-	.	.	.	.	.	.
=454	=454	=454	=454	=454	=454	=454	=454	=454
2.F\	.	2A/	.	0r	.	.	0r	.
.	.	1f	.	.	.	.	.	.
4E\	.	.	.	.	.	.	.	.
2D\	.	.	.	.	.	.	.	.
[2C/	.	2e\	.	.	.	.	.	.
=455	=455	=455	=455	=455	=455	=455	=455	=455
4C/]	.	2d\	.	0r	.	.	0r	.
4BB-/	.	.	.	.	.	.	.	.
1B-	.	2B-\	.	.	.	.	.	.
.	.	1c	.	.	.	.	.	.
2A\	.	.	.	.	.	.	.	.
=456	=456	=456	=456	=456	=456	=456	=456	=456
1.B-	.	[0B-	.	0d	.	.	1r	.
.	.	.	.	.	.	.	[1b-	.
2BB-/	.	.	.	.	.	.	.	.
=457	=457	=457	=457	=457	=457	=457	=457	=457
0BB-	.	0B-]	.	1d	.	.	1b-]	.
.	.	.	.	1d	.	.	1b-	.
=458	=458	=458	=458	=458	=458	=458	=458	=458
0r	.	0r	.	1G	.	.	1b-	.
.	.	.	.	1d	.	.	1b-	.
=459	=459	=459	=459	=459	=459	=459	=459	=459
0r	.	0r	.	2c\	.	.	1a	.
.	.	.	.	2A/	.	.	.	.
.	.	.	.	2.B-\	.	.	1g	.
.	.	.	.	4c\	.	.	.	.
=460	=460	=460	=460	=460	=460	=460	=460	=460
0r	.	0r	.	2A/	.	.	2.f/	.
.	.	.	.	1f	.	.	.	.
.	.	.	.	.	.	.	4g/	.
.	.	.	.	.	.	.	4a/	.
.	.	.	.	.	.	.	4b-\	.
.	.	.	.	2e\	.	.	[2cc\	.
=461	=461	=461	=461	=461	=461	=461	=461	=461
0r	.	0r	.	2d\	.	.	4cc\]	.
.	.	.	.	.	.	.	4b-\	.
.	.	.	.	2B-\	.	.	1b-	.
.	.	.	.	1c	.	.	.	.
.	.	.	.	.	.	.	2a/	.
=462	=462	=462	=462	=462	=462	=462	=462	=462
2r	.	1r	.	0B-	.	.	0b-	.
2.BB-/	.	.	.	.	.	.	.	.
.	.	1d	.	.	.	.	.	.
4C/	.	.	.	.	.	.	.	.
2D\	.	.	.	.	.	.	.	.
=463	=463	=463	=463	=463	=463	=463	=463	=463
2E\	.	1c	.	0r	.	.	0r	.
2F\	.	.	.	.	.	.	.	.
2BB-/	.	1d	.	.	.	.	.	.
[2B-\	.	.	.	.	.	.	.	.
=464	=464	=464	=464	=464	=464	=464	=464	=464
4B-\]	.	2G/	.	0r	.	.	0r	.
4A\	.	.	.	.	.	.	.	.
4G\	.	2d\	.	.	.	.	.	.
4F\	.	.	.	.	.	.	.	.
2E-\	.	2c\	.	.	.	.	.	.
[2D\	.	[2d\	.	.	.	.	.	.
=465	=465	=465	=465	=465	=465	=465	=465	=465
4D\]	.	2d\]	.	0r	.	.	0r	.
4E-i\	.	.	.	.	.	.	.	.
1G	.	2B-\	.	.	.	.	.	.
.	.	1A	.	.	.	.	.	.
2F#i\	.	.	.	.	.	.	.	.
=466	=466	=466	=466	=466	=466	=466	=466	=466
0G	.	0G	.	2r	.	.	1r	.
.	.	.	.	2.B-\	.	.	.	.
.	.	.	.	.	.	.	1dd	.
.	.	.	.	4c\	.	.	.	.
.	.	.	.	2d\	.	.	.	.
=467	=467	=467	=467	=467	=467	=467	=467	=467
0r	.	0r	.	2e\	.	.	1cc	.
.	.	.	.	2f\	.	.	.	.
.	.	.	.	2B-\	.	.	1dd	.
.	.	.	.	[2b-\	.	.	.	.
=468	=468	=468	=468	=468	=468	=468	=468	=468
0r	.	0r	.	4b-\]	.	.	2g/	.
.	.	.	.	4a\	.	.	.	.
.	.	.	.	4g\	.	.	2dd\	.
.	.	.	.	4f\	.	.	.	.
.	.	.	.	2e-i\	.	.	2cc\	.
.	.	.	.	[2d\	.	.	[2dd\	.
=469	=469	=469	=469	=469	=469	=469	=469	=469
1r	.	0r	.	4d\]	.	.	2dd\]	.
.	.	.	.	4e-i\	.	.	.	.
.	.	.	.	1g	.	.	2b-\	.
1D	.	.	.	.	.	.	1a	.
.	.	.	.	2f#i\	.	.	.	.
=470	=470	=470	=470	=470	=470	=470	=470	=470
1E	.	1r	.	1g	.	.	0g	.
1G	.	1B-	.	2.d\	.	.	.	.
.	.	.	.	4e\	.	.	.	.
=471	=471	=471	=471	=471	=471	=471	=471	=471
1F	.	1A	.	4f\	.	.	1r	.
.	.	.	.	4g\	.	.	.	.
.	.	.	.	2a\	.	.	.	.
2G\	.	1G	.	2d\	.	.	1b-	.
2E\	.	.	.	2e\	.	.	.	.
=472	=472	=472	=472	=472	=472	=472	=472	=472
2F\	.	1F	.	2c\	.	.	1a	.
2D\	.	.	.	2d\	.	.	.	.
2.E-i\	.	[1B-	.	4G/	.	.	1g	.
.	.	.	.	4A/	.	.	.	.
.	.	.	.	4B-\	.	.	.	.
4D\	.	.	.	4c\	.	.	.	.
=473	=473	=473	=473	=473	=473	=473	=473	=473
1BB-	.	1B-]	.	4d\	.	.	2f/	.
.	.	.	.	4e\	.	.	.	.
.	.	.	.	1.f	.	.	1b-	.
1F	.	1c	.	.	.	.	.	.
.	.	.	.	.	.	.	2a/	.
=474	=474	=474	=474	=474	=474	=474	=474	=474
2BB-/	.	1d	.	2.f\	.	.	2b-\	.
2B-\	.	.	.	.	.	.	1dd	.
.	.	.	.	4g\	.	.	.	.
2A\	.	1e	.	2a\	.	.	.	.
2c\	.	.	.	2g\	.	.	2cc\	.
=475	=475	=475	=475	=475	=475	=475	=475	=475
1.B-	.	2.f\	.	2b-\	.	.	2dd\	.
.	.	.	.	2f\	.	.	2.ff\	.
.	.	4e\	.	.	.	.	.	.
.	.	2d\	.	2g\	.	.	.	.
.	.	.	.	.	.	.	4dd\	.
2A\	.	2c\	.	2a\	.	.	[2ee\	.
=476	=476	=476	=476	=476	=476	=476	=476	=476
2B-\	.	2f\	.	2f\	.	.	4ee\]	.
.	.	.	.	.	.	.	4dd\	.
2G\	.	2g\	.	2b-\	.	.	1dd	.
1A	.	1e	.	1a	.	.	.	.
.	.	.	.	.	.	.	2cc#i\	.
=477	=477	=477	=477	=477	=477	=477	=477	=477
3%2DV	.	3%2dV	.	3%2fV	.	.	1dd	.
3D\Z	.	3d\Z	.	3f\Z	.	.	.	.
3%2AV	.	3%2cV	.	3%2eV	.	.	1r	.
3A\ZZ	.	3A/Z	.	3f\Z	.	.	.	.
=478	=478	=478	=478	=478	=478	=478	=478	=478
3%2GV	.	3%2B-V	.	3%2gV	.	.	3%2ddV	.
3B-\Z	.	3G/Z	.	3g\Z	.	.	3dd\Z	.
3%2AV	.	3%2A	.	3%2eV	.	.	3%2ccV	.
3A\ZZ	.	3c\Z	.	3f\Z	.	.	3a/Z	.
=479	=479	=479	=479	=479	=479	=479	=479	=479
3%2GV	.	3B-/V	.	3%2gV	.	.	3%2b-V	.
.	.	3G/	.	.	.	.	.	.
3G\Z	.	3B-\Z	.	3d\Z	.	.	3g/Z	.
3%2FV	.	3A/V	.	3%2fV	.	.	3%2aV	.
.	.	3F/	.	.	.	.	.	.
3F\Z	.	3A/Z	.	3f\Z	.	.	3cc\Z	.
=480	=480	=480	=480	=480	=480	=480	=480	=480
3G\V	.	3%2GV	.	3.d\V	.	.	3%2b-V	.
3B-\	.	.	.	.	.	.	.	.
.	.	.	.	6e\	.	.	.	.
3A\Z	.	3F/Z	.	3f\Z	.	.	3cc\Z	.
3%2GV	.	3%2B-V	.	3d\V	.	.	3%2ddV	.
.	.	.	.	3%2GZ	.	.	.	.
3E\Z	.	3c\Z	.	.	.	.	3ee\Z	.
=481	=481	=481	=481	=481	=481	=481	=481	=481
3%2DV	.	3%2dV	.	3A/V	.	.	3%2ffV	.
.	.	.	.	3B-\	.	.	.	.
3C/Z	.	3e\Z	.	3c\Z	.	.	3ee\Z	.
3D\V	.	3%2fV	.	3A/V	.	.	3%2ddV	.
3BB-/	.	.	.	3B-\	.	.	.	.
3C/Z	.	3e\Z	.	3G/Z	.	.	3cc\Z	.
=482	=482	=482	=482	=482	=482	=482	=482	=482
3%2DV	.	3%2dV	.	3F/V	.	.	3b-\V	.
.	.	.	.	3f\	.	.	3.a/	.
3E\Z	.	3B-\Z	.	3g\Z	.	.	.	.
.	.	.	.	.	.	.	6g/Z	.
3C/V	.	3c\V	.	3e\V	.	.	3%2gV	.
3%2DZ	.	3%2AZ	.	3%2dZ	.	.	.	.
.	.	.	.	.	.	.	3f#i/Z	.
=483	=483	=483	=483	=483	=483	=483	=483	=483
1.G	.	1.G	.	2B-\	.	.	1.g	.
.	.	.	.	2G/	.	.	.	.
.	.	.	.	[1d	.	.	.	.
2D\	.	2A/	.	.	.	.	2f/	.
=484	=484	=484	=484	=484	=484	=484	=484	=484
2G\	.	2B-\	.	2d\]	.	.	2g/	.
2D\	.	2A/	.	4e\	.	.	2f/	.
.	.	.	.	4f\	.	.	.	.
2G\	.	2B-\	.	2d\	.	.	2g/	.
2C/	.	2c\	.	2e\	.	.	2a/	.
=485	=485	=485	=485	=485	=485	=485	=485	=485
[0D	.	2A/	.	[0d	.	.	[0f#i	.
.	.	2B-\	.	.	.	.	.	.
.	.	2A/	.	.	.	.	.	.
.	.	[2B-\	.	.	.	.	.	.
=486	=486	=486	=486	=486	=486	=486	=486	=486
0D]	.	4B-\]	.	0d]	.	.	0f#]	.
.	.	4A/	.	.	.	.	.	.
.	.	4B-\	.	.	.	.	.	.
.	.	4G/	.	.	.	.	.	.
.	.	1A	.	.	.	.	.	.
=487	=487	=487	=487	=487	=487	=487	=487	=487
0Gl	.	0Gl	.	0dl	.	.	0gl	.
!!LO:LB:i:g=z
=488||	=488||	=488||	=488||	=488||	=488||	=488||	=488||	=488||
*>G	*	*>G	*	*>G	*	*	*>G	*
!!section: Septima pars: Christe, fili dei
!!!OMD: Septima pars: Christe, fili dei
!	!	!	!	!LO:TX:Z=6:X:=-50:t=Altus quotes discantus of the anon. "J'ay pris amours" down a fifth	!	!	!	!
0r	.	0r	.	0r	.	.	0g	Chri-
=489	=489	=489	=489	=489	=489	=489	=489	=489
0r	.	0G	Chri-	0r	.	.	0g	-ste,
=490	=490	=490	=490	=490	=490	=490	=490	=490
0r	.	0G	-ste,	0r	.	.	1.b-	fi-
.	.	.	.	.	.	.	2a/	.
=491	=491	=491	=491	=491	=491	=491	=491	=491
0r	.	1.B-	fi-	0r	.	.	1f	-li
.	.	.	.	.	.	.	1g	.
.	.	2A/	.	.	.	.	.	.
=492	=492	=492	=492	=492	=492	=492	=492	=492
0r	.	1F	-li	0r	.	.	1a	de-
.	.	1G	.	.	.	.	[1b-	.
=493	=493	=493	=493	=493	=493	=493	=493	=493
0r	.	0A	de-	0r	.	.	2b-\]	.
.	.	.	.	.	.	.	2a/	.
.	.	.	.	.	.	.	[1a	.
=494	=494	=494	=494	=494	=494	=494	=494	=494
1r	.	0B-	.	0d	J'ay	Sal-	1a]	.
1G	Sal-	.	.	.	.	.	1g	.
=495	=495	=495	=495	=495	=495	=495	=495	=495
1F	-va-	1A	.	1f	pris	-va-	0a	-i,
1D	-tor	[1d	.	1f	a-	-tor	.	.
=496	=496	=496	=496	=496	=496	=496	=496	=496
0E	nos-	1d]	.	0e	-mours,	nos-	0r	.
.	.	1c#i	.	.	.	.	.	.
=497	=497	=497	=497	=497	=497	=497	=497	=497
0D	-ter,	0d	-i,	0A	.	-ter,	1r	.
.	.	.	.	.	.	.	1f	mun-
=498	=498	=498	=498	=498	=498	=498	=498	=498
0E	mun-	0G	mun-	1r	.	.	1g	-di
.	.	.	.	1c	a	mun-	1e	qui
=499	=499	=499	=499	=499	=499	=499	=499	=499
1D	-di	1A	-di	1d	ma	-di	1f	cri-
1G	qui	1B-	qui	1e	de-	qui	1g	.
=500	=500	=500	=500	=500	=500	=500	=500	=500
2F\	cri-	2A/	cri-	1f	-vi-	cri-	2a/	.
2D\	.	2F/	.	.	.	.	1b-	.
1E	-mi-	2.G/	.	2e\	.	-mi-	.	.
.	.	.	.	2c\	.	.	4a/	-mi-
.	.	4A/	.	.	.	.	4g/	.
=501	=501	=501	=501	=501	=501	=501	=501	=501
1D	-na	2B-\	.	1d	.	-na	1f	-na
.	.	1A	.	.	.	.	.	.
1E	tol-	.	.	1c	-se,	.	1r	.
.	.	2G/	-mi-	.	.	.	.	.
=502	=502	=502	=502	=502	=502	=502	=502	=502
1D	.	1A	-na	1r	.	.	1f	tol-
1G	.	2r	.	1e	a	tol-	1g	.
.	.	2B-\	tol-	.	.	.	.	.
=503	=503	=503	=503	=503	=503	=503	=503	=503
2F\	.	2c\	.	1f	ma	.	2a/	.
2D\	.	1d	.	.	.	.	1b-	.
1E	.	.	.	1g	de-	.	.	.
.	.	2c\	.	.	.	.	4a/	.
.	.	.	.	.	.	.	4g/	.
=504	=504	=504	=504	=504	=504	=504	=504	=504
1D	-lis,	1d	.	1a	-vi-	-lis,	1f	-lis,
1E	mi-	1G	.	2g\	.	mi-	1g	.
.	.	.	.	2e\	.	-se-	.	.
=505	=505	=505	=505	=505	=505	=505	=505	=505
1D	.	1A	.	2f\	.	-re-	2r	.
.	.	.	.	1d	.	-re	2f/	mi-
1G	-se-	1G	-lis,	.	.	.	2g/	-se-
.	.	.	.	[2e\	.	no-	2b-\	.
=506	=506	=506	=506	=506	=506	=506	=506	=506
2F\	-re-	2r	.	4e\]	.	.	2a/	-re-
.	.	.	.	4d\	.	.	.	.
2D\	.	2F/	mi-	1d	.	.	1b-	.
1E	-re	2.G/	-se-	.	.	.	.	.
.	.	.	.	2c\	.	.	4a/	-re
.	.	4A/	.	.	.	.	4g/	.
=507	=507	=507	=507	=507	=507	=507	=507	=507
0D	no-	2B-\	-re-	[0dl	-se.	-bis.	2f/	no-
.	.	2G/	-re	.	.	.	1g	.
.	.	1A	no-	.	.	.	.	.
.	.	.	.	.	.	.	2f#i/	.
=508	=508	=508	=508	=508	=508	=508	=508	=508
0Gl;	-bis.	0G;	-bis.	0d;]	.	.	0gl;	-bis.
=509	=509	=509	=509	=509	=509	=509	=509	=509
0r	.	0r	.	0r	.	.	0g	Chri-
=510	=510	=510	=510	=510	=510	=510	=510	=510
0r	.	0G	Chri-	0r	.	.	0g	-ste,
=511	=511	=511	=511	=511	=511	=511	=511	=511
0r	.	0G	-ste,	0r	.	.	1.b-	fi-
.	.	.	.	.	.	.	2a/	.
=512	=512	=512	=512	=512	=512	=512	=512	=512
0r	.	1.B-	fi-	0r	.	.	1f	-li
.	.	.	.	.	.	.	1g	.
.	.	2A/	.	.	.	.	.	.
=513	=513	=513	=513	=513	=513	=513	=513	=513
0r	.	1F	-li	0r	.	.	1a	de-
.	.	1G	.	.	.	.	[1b-	.
=514	=514	=514	=514	=514	=514	=514	=514	=514
0r	.	0A	de-	0r	.	.	2b-\]	.
.	.	.	.	.	.	.	2a/	.
.	.	.	.	.	.	.	[1a	.
=515	=515	=515	=515	=515	=515	=515	=515	=515
0r	.	0B-	.	0d	Chri-	&	1a]	.
.	.	.	.	.	.	.	1g	.
=516	=516	=516	=516	=516	=516	=516	=516	=516
0r	.	0A	.	1f	-ste,	.	0a	-i,
.	.	.	.	[1e	fi-	.	.	.
=517	=517	=517	=517	=517	=517	=517	=517	=517
0r	.	0c	.	1e]	.	.	0r	.
.	.	.	.	1c	-li	.	.	.
=518	=518	=518	=518	=518	=518	=518	=518	=518
0r	.	1B-	.	1d	de-	.	0r	.
.	.	1c	.	[1c	.	.	.	.
=519	=519	=519	=519	=519	=519	=519	=519	=519
0r	.	1A	.	1c]	.	.	0r	.
.	.	1F	.	[1f	.	.	.	.
=520	=520	=520	=520	=520	=520	=520	=520	=520
0r	.	0G	-i,	1f]	.	.	0r	.
.	.	.	.	1e	.	.	.	.
=521	=521	=521	=521	=521	=521	=521	=521	=521
0F	mun-	1r	.	0f	-i,	.	0r	.
.	.	1F	mun-	.	.	.	.	.
=522	=522	=522	=522	=522	=522	=522	=522	=522
1E	.	1G	.	0r	.	.	0r	.
1F	.	1A	.	.	.	.	.	.
=523	=523	=523	=523	=523	=523	=523	=523	=523
1D	.	1F	.	0f	mun-	.	0r	.
1BB-	.	[1B-	.	.	.	.	.	.
=524	=524	=524	=524	=524	=524	=524	=524	=524
0C	.	1B-]	.	1e-i	.	.	0r	.
.	.	1A	.	1c	.	.	.	.
=525	=525	=525	=525	=525	=525	=525	=525	=525
0BB-	-di	0B-	-di	0d	-di	.	0r	.
=526	=526	=526	=526	=526	=526	=526	=526	=526
0F	ve-	0A	ve-	1c	ve-	.	0a	ve-
.	.	.	.	[1A	-ris-	.	.	.
=527	=527	=527	=527	=527	=527	=527	=527	=527
1F	-ris-	1A	-ris-	1A]	.	.	1a	-ris-
1F	-si-	1A	-si-	[1d	-si-	.	1a	-si-
=528	=528	=528	=528	=528	=528	=528	=528	=528
1G	-ma	1B-	-ma	1d]	.	.	1d	-ma
1E	.	1G	.	1c	-ma	.	1g	.
=529	=529	=529	=529	=529	=529	=529	=529	=529
1D	sa-	2A/	sa-	1d	sa-	.	1f	sa-
.	.	2B-\	.	.	.	.	.	.
1C	.	1c	.	1e	.	.	1g	.
=530	=530	=530	=530	=530	=530	=530	=530	=530
0F	-lus,	1.A	.	0c	-lus,	.	[0a	-lus,
.	.	2F/	.	.	.	.	.	.
=531	=531	=531	=531	=531	=531	=531	=531	=531
0r	.	1F	-lus,	0r	.	.	0a]	.
.	.	1f	mi-	.	.	.	.	.
=532	=532	=532	=532	=532	=532	=532	=532	=532
0A	mi-	1e	.	1c	mi-	.	0r	.
.	.	1f	-se-	1c	-se-	.	.	.
=533	=533	=533	=533	=533	=533	=533	=533	=533
1.B-	.	1.g	-re-	1.d	-re-	.	1d	mi-
.	.	.	.	.	.	.	1d	-se-
2A\	-se-	2f\	-re	2c\	-re	.	.	.
=534	=534	=534	=534	=534	=534	=534	=534	=534
1G	-re-	2e\	no-	2.B-\	no-	.	1e	-re-
.	.	2d\	.	.	.	.	.	.
.	.	.	.	4A/	.	.	.	.
1F	-re	[1d	.	[1A	.	.	1f	-re
=535	=535	=535	=535	=535	=535	=535	=535	=535
0E	no-	1d]	.	1A]	.	.	0g	no-
.	.	1c#i	.	1G	.	.	.	.
=536	=536	=536	=536	=536	=536	=536	=536	=536
0Dl;	-bis.	0dl;	-bis.	0Al;	-bis.	.	0fl;	-bis.
=537	=537	=537	=537	=537	=537	=537	=537	=537
0r	.	0r	.	0r	.	.	0g	Chri-
=538	=538	=538	=538	=538	=538	=538	=538	=538
0r	.	0G	Chri-	0r	.	.	0g	-ste,
=539	=539	=539	=539	=539	=539	=539	=539	=539
0r	.	0G	-ste,	0r	.	.	1.b-	fi-
.	.	.	.	.	.	.	2a/	.
=540	=540	=540	=540	=540	=540	=540	=540	=540
0r	.	1.B-	fi-	0r	.	.	1f	-li
.	.	.	.	.	.	.	1g	.
.	.	2A/	.	.	.	.	.	.
=541	=541	=541	=541	=541	=541	=541	=541	=541
0r	.	1F	-li	0r	.	.	1a	de-
.	.	1G	.	.	.	.	[1b-	.
=542	=542	=542	=542	=542	=542	=542	=542	=542
0r	.	0A	de-	0r	.	.	2b-\]	.
.	.	.	.	.	.	.	2a/	.
.	.	.	.	.	.	.	[1a	.
=543	=543	=543	=543	=543	=543	=543	=543	=543
0r	.	0B-	.	0r	.	.	1a]	.
.	.	.	.	.	.	.	1g	.
=544	=544	=544	=544	=544	=544	=544	=544	=544
1r	.	1A	-i,	1r	.	.	0a	-i,
[1A	pre-	[1c	pre-	[1e	pre-	.	.	.
=545	=545	=545	=545	=545	=545	=545	=545	=545
2A\]	.	2c\]	.	2e\]	.	.	1r	.
2A\	-ci-	2c\	-ci-	2e\	-ci-	.	.	.
1A	-bus	1c	-bus	1e	-bus	.	[1a	pre-
=546	=546	=546	=546	=546	=546	=546	=546	=546
1D	sanc-	1.d	sanc-	1.f	sanc-	.	2a/]	.
.	.	.	.	.	.	.	2a/	-ci-
1D	-tis-	.	.	.	.	.	1a	-bus
.	.	2c\	.	4e\	.	.	.	.
.	.	.	.	4d\	.	.	.	.
=547	=547	=547	=547	=547	=547	=547	=547	=547
1.F	.	1.A	-tis-	1c	-tis-	.	1a	sanc-
.	.	.	.	1d	-si-	.	1a	-tis-
2E\	-si-	2B-\	-si-	.	.	.	.	.
=548	=548	=548	=548	=548	=548	=548	=548	=548
0C	-me	0c	-me	1e	-me	.	1g	-si-
.	.	.	.	[1c	ma-	.	[1a	-me
=549	=549	=549	=549	=549	=549	=549	=549	=549
0D	ma-	0F	ma-	1c]	.	.	2a/]	.
.	.	.	.	.	.	.	2f/	.
.	.	.	.	1Bni	.	.	[1f	ma-
=550	=550	=550	=550	=550	=550	=550	=550	=550
0C	-tris,	0G	.	0c	-tris,	.	1f]	.
.	.	.	.	.	.	.	1e	.
=551	=551	=551	=551	=551	=551	=551	=551	=551
1r	.	0F	-tris,	1r	.	.	0f	-tris,
1F	ad-	.	.	1A	ad-	.	.	.
=552	=552	=552	=552	=552	=552	=552	=552	=552
2G\	-ju-	0r	.	1B-	-ju-	.	1r	.
2B-\	.	.	.	.	.	.	.	.
1A	-va	.	.	1c	-va	.	1f	ad-
=553	=553	=553	=553	=553	=553	=553	=553	=553
1G	nos	1r	.	1d	nos	.	2g/	-ju-
.	.	.	.	.	.	.	2b-\	.
1r	.	1F	ad-	1A	.	.	2a/	.
.	.	.	.	.	.	.	2cc\	.
=554	=554	=554	=554	=554	=554	=554	=554	=554
0r	.	2G/	-ju-	1r	.	.	2b-\	.
.	.	2B-\	.	.	.	.	1g	.
.	.	1A	-va	1c	et	.	.	.
.	.	.	.	.	.	.	2f#i/	-va
=555	=555	=555	=555	=555	=555	=555	=555	=555
1r	.	0G	nos	1d	tol-	.	0g	nos
1C	et	.	.	1c	-le	.	.	.
=556	=556	=556	=556	=556	=556	=556	=556	=556
1D	tol-	0r	.	1.f	tri-	.	0r	.
1C	-le	.	.	.	.	.	.	.
.	.	.	.	2e\	-bu-	.	.	.
=557	=557	=557	=557	=557	=557	=557	=557	=557
1.F	tri-	0r	.	1d	-la-	.	0r	.
.	.	.	.	1c	-ti-	.	.	.
2E\	-bu-	.	.	.	.	.	.	.
=558	=558	=558	=558	=558	=558	=558	=558	=558
1D	-la-	0r	.	1f	-o-	.	0r	.
1C	-ti-	.	.	2e\	.	.	.	.
.	.	.	.	[2a\	.	.	.	.
=559	=559	=559	=559	=559	=559	=559	=559	=559
2F\	-o-	0r	.	2a\]	.	.	0r	.
2G\	.	.	.	2g\	.	.	.	.
1A	-nem	.	.	1e	-nem	.	.	.
=560	=560	=560	=560	=560	=560	=560	=560	=560
0D	nos-	0r	.	2f\	nos-	.	0r	.
.	.	.	.	2d\	.	.	.	.
.	.	.	.	[1d	.	.	.	.
=561	=561	=561	=561	=561	=561	=561	=561	=561
0E	.	0r	.	1d]	.	.	0r	.
.	.	.	.	1c#i	.	.	.	.
=562	=562	=562	=562	=562	=562	=562	=562	=562
0D	-tram.	0r	.	[0d	.	.	1r	.
.	.	.	.	.	.	.	1f	et
=563	=563	=563	=563	=563	=563	=563	=563	=563
1G	.	1r	.	0d_	.	.	1g	tol-
1D	et	1F	et	.	.	.	1f	-le
=564	=564	=564	=564	=564	=564	=564	=564	=564
1G	tol-	1G	tol-	0d_	.	.	1.b-	tri-
1D	-le	1F	-le	.	.	.	.	.
.	.	.	.	.	.	.	2a/	-bu-
=565	=565	=565	=565	=565	=565	=565	=565	=565
1G	tri-	1.B-	tri-	0d]	.	.	1g	-la-
1D	-bu-	.	.	.	.	.	1f	-ti-
.	.	2A/	-bu-	.	.	.	.	.
=566	=566	=566	=566	=566	=566	=566	=566	=566
1G	-la-	1G	-la-	[0dl	-tram.	.	1b-	-o-
1D	-ti-	1F	-ti-	.	.	.	2a/	.
.	.	.	.	.	.	.	[2dd\	.
=567	=567	=567	=567	=567	=567	=567	=567	=567
1G	-o-	2B-\	-o-	0d_	.	.	2dd\]	.
.	.	2c\	.	.	.	.	2cc\	.
1F	-nem	1d	-nem	.	.	.	1a	-nem
=568	=568	=568	=568	=568	=568	=568	=568	=568
0G	nos-	0G	nos-	0d_	.	.	2b-\	nos-
.	.	.	.	.	.	.	2g/	.
.	.	.	.	.	.	.	[1g	.
=569	=569	=569	=569	=569	=569	=569	=569	=569
0D	.	0A	.	0d_	.	.	1g]	.
.	.	.	.	.	.	.	1f#i	.
=570	=570	=570	=570	=570	=570	=570	=570	=570
0Gl	-tram.	0Gl	-tram.	0d]	.	.	0gl	-tram.
==	==	==	==	==	==	==	==	==
*-	*-	*-	*-	*-	*-	*-	*-	*-
!!!RDF**kern: V=start of tuplet marker
!!!RDF**kern: Z=end of tuplet marker
!!!RDF**kern: l=long note in original notation
!!!RDF**kern: i=editorial accidental
!!!ENC:	Will Watson 11/07/2011
!!!END:	2011/07/11/
!!!EED:	Jesse Rodin
!!!EEV:	2012/04/22/
!!attribution-level@Jos: 2 (slightly less secure)
!!!ONB:	Translated from MusicXML and edited on 2011/10/17/ by Craig Sapp
!!muse2ps: C^@{COA}?\n@{SCT}^I150v90,90,90,110c66i2I150Q16z18
